;FLAVOR:Marlin
;TIME:222
;Filament used: 3.60997m
;Layer height: 3
;MINX:88.44
;MINY:93.238
;MINZ:3
;MAXX:144.388
;MAXY:144.253
;MAXZ:12
;TARGET_MACHINE.NAME:Creality Ender-3
;Generated with Cura_SteamEngine 5.10.1
M140 S50
M105
M190 S50
M104 S200
M105
M109 S200
; Ender 3 Custom Start G-code
G92 E0 ; Reset Extruder
G28 ; Home all axes
G1 Z2.0 F3000 ; Move Z Axis up little to prevent scratching of Heat Bed
G1 X0.1 Y20 Z0.3 F5000.0 ; Move to start position
G1 X0.1 Y200.0 Z0.3 F1500.0 E15 ; Draw the first line
G1 X0.4 Y200.0 Z0.3 F5000.0 ; Move to side a little
G1 X0.4 Y20 Z0.3 F1500.0 E30 ; Draw the second line
G92 E0 ; Reset Extruder
G1 Z2.0 F3000 ; Move Z Axis up little to prevent scratching of Heat Bed
G1 X5 Y20 Z0.3 F5000.0 ; Move over to prevent blob squish
M82 ;absolute extrusion mode
G92 E0
G92 E0
G1 F2700 E-5
;LAYER_COUNT:4
;LAYER:0
M107
;MESH:v2.obj
G0 F6000 X117.5 Y131.139 Z3
;TYPE:WALL-INNER
G1 F2700 E0
G1 F1200 X117.742 Y131.139 E0.30812
G1 X118.122 Y131.171 E0.79367
G1 X118.507 Y131.237 E1.29102
G1 X118.894 Y131.339 E1.80059
G1 X119.257 Y131.469 E2.29152
G1 X119.705 Y131.675 E2.91934
G1 X120.122 Y131.937 E3.54638
G1 X120.434 Y132.175 E4.04602
G1 X120.765 Y132.481 E4.61996
G1 X120.937 Y132.665 E4.94066
G1 X121.142 Y132.916 E5.35328
G1 X121.381 Y133.255 E5.8814
G1 X121.598 Y133.656 E6.46193
G1 X121.789 Y134.108 E7.08671
G1 X121.898 Y134.434 E7.52437
G1 X122.262 Y134.989 E8.36944
G1 X123.215 Y136.04 E10.17583
G1 X124.535 Y137.141 E12.3644
G1 X126.122 Y138.094 E14.72136
G1 X127.803 Y138.717 E17.00394
G1 X129.467 Y138.931 E19.14006
G1 X135.167 Y138.055 E26.48273
G1 X138.345 Y136.135 E31.21022
G1 X140.167 Y133.572 E35.21408
G1 X141.119 Y130.47 E39.34548
G1 X141.381 Y127.341 E43.34339
G1 X141.247 Y124.993 E46.33782
G1 X141.119 Y124.137 E47.43983
G1 X140.521 Y120.62 E51.98209
G1 X138.932 Y117.289 E56.6811
G1 X136.099 Y113.43 E62.77641
G1 X132.123 Y109.208 E70.16053
G1 X127.144 Y104.701 E78.71149
G1 X121.311 Y99.938 E88.29976
G1 X117.499 Y97.017 E94.41444
G1 X113.685 Y99.938 E100.53114
G1 X107.856 Y104.701 E110.11546
G1 X102.869 Y109.217 E118.68167
G1 X98.897 Y113.43 E126.05395
G1 X96.067 Y117.289 E132.14701
G1 X94.475 Y120.622 E136.84996
G1 X93.876 Y124.137 E141.38992
G1 X93.75 Y124.993 E142.49156
G1 X93.615 Y127.338 E145.48225
G1 X93.88 Y130.47 E149.48428
G1 X94.83 Y133.574 E153.61737
G1 X96.65 Y136.133 E157.61561
G1 X99.832 Y138.052 E162.3468
G1 X105.531 Y138.931 E169.68879
G1 X107.196 Y138.718 E171.82601
G1 X108.874 Y138.094 E174.10545
G1 X110.466 Y137.14 E176.46853
G1 X111.782 Y136.042 E178.65074
G1 X112.731 Y134.992 E180.45277
G1 X113.098 Y134.434 E181.30313
G1 X113.207 Y134.106 E181.74321
G1 X113.397 Y133.659 E182.36163
G1 X113.608 Y133.265 E182.93069
G1 X113.854 Y132.916 E183.47435
G1 X114.059 Y132.666 E183.88599
G1 X114.23 Y132.482 E184.20581
G1 X114.563 Y132.175 E184.78249
G1 X114.875 Y131.938 E185.28136
G1 X115.208 Y131.728 E185.78261
G1 X115.638 Y131.505 E186.39935
G1 X116.099 Y131.34 E187.02278
G1 X116.487 Y131.237 E187.53391
G1 X116.873 Y131.171 E188.03251
G1 X117.253 Y131.139 E188.51805
G1 X117.5 Y131.139 E188.83254
G1 F2700 E183.83254
G0 F6000 X117.5 Y133.549
G0 X117.5 Y134.142
;TYPE:WALL-OUTER
G1 F2700 E188.83254
G1 F1200 X117.618 Y134.137 E188.98292
G1 X117.873 Y134.169 E189.31014
G1 X118.123 Y134.247 E189.64359
G1 X118.358 Y134.367 E189.97955
G1 X118.565 Y134.525 E190.31111
G1 X118.812 Y134.814 E190.79516
G1 X118.94 Y135.039 E191.12475
G1 X119.172 Y135.747 E192.07337
G1 X119.882 Y136.831 E193.72326
G1 X121.133 Y138.21 E196.0939
G1 X122.792 Y139.593 E198.84391
G1 X124.817 Y140.81 E201.85202
G1 X127.081 Y141.649 E204.92621
G1 X129.505 Y141.961 E208.038
G1 X136.21 Y140.93 E216.67541
G1 X140.429 Y138.381 E222.95151
G1 X142.893 Y134.916 E228.36502
G1 X144.082 Y131.042 E233.52464
G1 X144.388 Y127.38 E238.2035
G1 X144.234 Y124.686 E241.6392
G1 X144.082 Y123.665 E242.95351
G1 X143.408 Y119.706 E248.06679
G1 X141.518 Y115.742 E253.65824
G1 X138.409 Y111.506 E260.34845
G1 X134.225 Y107.064 E268.11806
G1 X129.101 Y102.426 E276.91783
G1 X123.173 Y97.585 E286.6626
G1 X117.499 Y93.238 E295.76343
G1 X111.823 Y97.585 E304.86628
G1 X105.899 Y102.426 E314.60711
G1 X100.767 Y107.073 E323.42212
G1 X96.587 Y111.506 E331.17989
G1 X93.481 Y115.742 E337.86785
G1 X91.588 Y119.706 E343.46094
G1 X90.914 Y123.665 E348.57423
G1 X90.762 Y124.686 E349.88853
G1 X90.608 Y127.379 E353.32297
G1 X90.918 Y131.042 E358.00351
G1 X92.104 Y134.916 E363.16202
G1 X94.566 Y138.38 E368.57302
G1 X98.79 Y140.926 E374.85259
G1 X105.492 Y141.961 E383.487
G1 X107.918 Y141.65 E386.60116
G1 X110.179 Y140.81 E389.67221
G1 X112.208 Y139.593 E392.68468
G1 X113.866 Y138.211 E395.4329
G1 X115.113 Y136.832 E397.80012
G1 X115.824 Y135.747 E399.45177
G1 X116.108 Y134.908 E400.57956
G1 X116.37 Y134.584 E401.11009
G1 X116.696 Y134.333 E401.63395
G1 X116.932 Y134.224 E401.96493
G1 X117.186 Y134.157 E402.2994
G1 X117.5 Y134.142 E402.69965
G1 F2700 E397.69965
G0 F6000 X117.5 Y133.549
G0 X117.516 Y129.637
G0 X117.5 Y128.436
;TYPE:SKIN
G1 F2700 E402.69965
G1 F1200 X117.072 Y128.445 E403.24472
G1 X116.485 Y128.5 E403.99538
G1 X115.91 Y128.597 E404.73784
G1 X115.228 Y128.784 E405.63824
G1 X114.653 Y128.996 E406.41853
G1 X114.095 Y129.259 E407.20395
G1 X113.59 Y129.547 E407.94415
G1 X113.125 Y129.872 E408.66649
G1 X112.598 Y130.302 E409.5325
G1 X112.305 Y130.584 E410.05028
G1 X112.062 Y130.845 E410.50433
G1 X111.77 Y131.191 E411.08078
G1 X111.406 Y131.699 E411.87649
G1 X111.226 Y131.992 E412.31433
G1 X110.926 Y132.544 E413.11424
G1 X110.628 Y133.288 E414.1347
G1 X109.905 Y134.092 E415.51141
G1 X108.909 Y134.921 E417.16135
G1 X107.695 Y135.649 E418.96369
G1 X106.54 Y136.077 E420.532
G1 X105.568 Y136.201 E421.77962
G1 X100.769 Y135.462 E427.96192
G1 X98.522 Y134.108 E431.30216
G1 X97.283 Y132.364 E434.02602
G1 X96.546 Y129.961 E437.22628
G1 X96.32 Y127.299 E440.62783
G1 X96.438 Y125.262 E443.22577
G1 X96.542 Y124.56 E444.12934
G1 X97.072 Y121.442 E448.15625
G1 X98.39 Y118.682 E452.05051
G1 X100.971 Y115.162 E457.60802
G1 X104.755 Y111.149 E464.63081
G1 X109.615 Y106.75 E472.97717
G1 X115.363 Y102.053 E482.42846
G1 X117.496 Y100.419 E485.84957
G1 X119.629 Y102.053 E489.27069
G1 X125.385 Y106.75 E498.72987
G1 X130.225 Y111.132 E507.04282
G1 X134.025 Y115.166 E514.09905
G1 X136.603 Y118.678 E519.64608
G1 X137.92 Y121.438 E523.5398
G1 X138.45 Y124.56 E527.57172
G1 X138.554 Y125.262 E528.47529
G1 X138.672 Y127.3 E531.0745
G1 X138.45 Y129.962 E534.47563
G1 X137.713 Y132.359 E537.66859
G1 X136.466 Y134.112 E540.40769
G1 X134.23 Y135.462 E543.7333
G1 X129.428 Y136.201 E549.91938
G1 X128.455 Y136.077 E551.16826
G1 X127.296 Y135.649 E552.74135
G1 X126.093 Y134.926 E554.5284
G1 X125.09 Y134.087 E556.19334
G1 X124.369 Y133.294 E557.55796
G1 X124.09 Y132.591 E558.52096
G1 X123.766 Y131.992 E559.38805
G1 X123.583 Y131.693 E559.8344
G1 X123.321 Y131.321 E560.41372
G1 X122.995 Y130.918 E561.07371
G1 X122.683 Y130.58 E561.65938
G1 X122.253 Y130.166 E562.41938
G1 X121.728 Y129.764 E563.26129
G1 X121.174 Y129.409 E564.09906
G1 X120.875 Y129.243 E564.5345
G1 X120.329 Y128.992 E565.29962
G1 X119.701 Y128.763 E566.15072
G1 X118.935 Y128.56 E567.15969
G1 X118.149 Y128.456 E568.16918
G1 X117.539 Y128.435 E568.94631
G1 X117.5 Y128.436 E568.99599
G1 F2700 E563.99599
G0 F6000 X104.877 Y134.576
G1 F2700 E568.99599
G1 F1200 X97.846 Y127.544 E581.65713
G1 F2700 E576.65713
G0 F6000 X98.215 Y123.671
G1 F2700 E581.65713
G1 F1200 X108.147 Y133.603 E599.54102
G1 F2700 E594.54102
G0 F6000 X109.966 Y131.179
G1 F2700 E599.54102
G1 F1200 X99.217 Y120.43 E618.89602
G1 F2700 E613.89602
G0 F6000 X100.868 Y117.839
G1 F2700 E618.89602
G1 F1200 X111.934 Y128.905 E638.82182
G1 F2700 E633.82182
G0 F6000 X114.664 Y127.392
G1 F2700 E638.82182
G1 F1200 X102.742 Y115.47 E660.28896
G1 F2700 E655.28896
G0 F6000 X104.801 Y113.286
G1 F2700 E660.28896
G1 F1200 X118.505 Y126.99 E684.96483
G1 F2700 E679.96483
G0 F6000 X130.305 Y134.548
G1 F2700 E684.96483
G1 F1200 X106.946 Y111.189 E727.02581
G1 F2700 E722.02581
G0 F6000 X109.173 Y109.173
G1 F2700 E727.02581
G1 F1200 X133.906 Y133.906 E771.56086
G1 F2700 E766.56086
G0 F6000 X136.176 Y131.933
G1 F2700 E771.56086
G1 F1200 X111.439 Y107.197 E816.1022
G1 F2700 E811.1022
G0 F6000 X113.774 Y105.289
G1 F2700 E816.1022
G1 F1200 X137.061 Y128.575 E858.03264
G1 F2700 E853.03264
G0 F6000 X136.855 Y124.127
G1 F2700 E858.03264
G1 F1200 X116.109 Y103.381 E895.38856
G1 F2700 E890.38856
;MESH:NONMESH
G0 F300 X116.109 Y103.381 Z6
G0 F6000 X110.185 Y96.131
G0 X104.489 Y100.783
G0 X99.255 Y105.521
G0 X94.92 Y110.124
G0 X91.62 Y114.623
G0 X89.506 Y119.05
G0 X88.609 Y124.471
G0 X88.44 Y127.412
G0 X88.779 Y131.447
G0 X90.141 Y135.885
G0 X93.065 Y140.001
G0 X98.042 Y143.004
G0 X105.465 Y144.148
G0 X108.444 Y143.767
G0 X111.126 Y142.772
G0 X113.455 Y141.371
G0 X115.374 Y139.77
G0 X116.688 Y138.319
G0 X117.501 Y137.116
G0 X117.191 Y129.641
G0 X117.5 Y131.191
;TIME_ELAPSED:49.441651
;LAYER:1
;TYPE:WALL-INNER
;MESH:v2.obj
G1 F2700 E895.38856
G1 F1350 X117.742 Y131.191 E895.69668
G1 X118.122 Y131.223 E896.18223
G1 X118.507 Y131.289 E896.67958
G1 X118.894 Y131.391 E897.18915
G1 X119.257 Y131.521 E897.68008
G1 X119.705 Y131.727 E898.3079
G1 X120.122 Y131.989 E898.93494
G1 X120.434 Y132.227 E899.43458
G1 X120.765 Y132.533 E900.00852
G1 X120.937 Y132.717 E900.32922
G1 X121.142 Y132.968 E900.74184
G1 X121.387 Y133.315 E901.28269
G1 X121.598 Y133.708 E901.85063
G1 X121.789 Y134.16 E902.4754
G1 X121.898 Y134.486 E902.91307
G1 X122.262 Y135.041 E903.75814
G1 X123.215 Y136.092 E905.56453
G1 X124.535 Y137.193 E907.75309
G1 X126.122 Y138.146 E910.11006
G1 X127.806 Y138.771 E912.3971
G1 X129.469 Y138.987 E914.53229
G1 X135.166 Y138.108 E921.87176
G1 X138.345 Y136.187 E926.601
G1 X140.167 Y133.624 E930.60486
G1 X141.119 Y130.522 E934.73626
G1 X141.381 Y127.393 E938.73417
G1 X141.247 Y125.045 E941.7286
G1 X141.119 Y124.189 E942.83061
G1 X140.521 Y120.672 E947.37287
G1 X138.932 Y117.341 E952.07188
G1 X136.099 Y113.482 E958.16719
G1 X132.123 Y109.26 E965.55131
G1 X127.144 Y104.753 E974.10228
G1 X121.311 Y99.99 E983.69054
G1 X117.499 Y97.069 E989.80522
G1 X113.685 Y99.99 E995.92192
G1 X107.856 Y104.753 E1005.50624
G1 X102.869 Y109.269 E1014.07245
G1 X98.897 Y113.482 E1021.44473
G1 X96.067 Y117.341 E1027.53779
G1 X94.475 Y120.674 E1032.24074
G1 X93.876 Y124.189 E1036.7807
G1 X93.75 Y125.045 E1037.88234
G1 X93.615 Y127.39 E1040.87303
G1 X93.88 Y130.522 E1044.87506
G1 X94.83 Y133.626 E1049.00816
G1 X96.65 Y136.185 E1053.00639
G1 X99.832 Y138.104 E1057.73758
G1 X105.531 Y138.983 E1065.07957
G1 X107.196 Y138.77 E1067.21679
G1 X108.874 Y138.146 E1069.49623
G1 X110.466 Y137.192 E1071.85931
G1 X111.782 Y136.094 E1074.04152
G1 X112.731 Y135.044 E1075.84355
G1 X113.098 Y134.486 E1076.69391
G1 X113.207 Y134.158 E1077.13399
G1 X113.397 Y133.711 E1077.75241
G1 X113.608 Y133.317 E1078.32147
G1 X113.854 Y132.968 E1078.86513
G1 X114.059 Y132.718 E1079.27677
G1 X114.23 Y132.534 E1079.5966
G1 X114.563 Y132.227 E1080.17327
G1 X114.875 Y131.99 E1080.67214
G1 X115.208 Y131.78 E1081.1734
G1 X115.638 Y131.557 E1081.79013
G1 X116.099 Y131.392 E1082.41356
G1 X116.487 Y131.289 E1082.92469
G1 X116.873 Y131.223 E1083.42329
G1 X117.253 Y131.191 E1083.90884
G1 X117.5 Y131.191 E1084.22333
G1 F2700 E1079.22333
G0 F7500 X117.5 Y133.602
G0 X117.5 Y134.194
;TYPE:WALL-OUTER
G1 F2700 E1084.22333
G1 F1350 X117.618 Y134.189 E1084.3737
G1 X117.873 Y134.221 E1084.70093
G1 X118.123 Y134.299 E1085.03437
G1 X118.358 Y134.419 E1085.37033
G1 X118.565 Y134.577 E1085.7019
G1 X118.752 Y134.781 E1086.05425
G1 X118.936 Y135.08 E1086.50126
G1 X119.172 Y135.799 E1087.46477
G1 X119.882 Y136.883 E1089.11467
G1 X121.133 Y138.262 E1091.4853
G1 X122.792 Y139.645 E1094.23531
G1 X124.817 Y140.862 E1097.24342
G1 X127.082 Y141.702 E1100.31925
G1 X129.505 Y142.017 E1103.43027
G1 X136.21 Y140.982 E1112.06845
G1 X140.429 Y138.433 E1118.34455
G1 X142.893 Y134.968 E1123.75806
G1 X144.082 Y131.094 E1128.91768
G1 X144.388 Y127.432 E1133.59654
G1 X144.234 Y124.738 E1137.03224
G1 X144.082 Y123.717 E1138.34655
G1 X143.408 Y119.758 E1143.45983
G1 X141.518 Y115.794 E1149.05128
G1 X138.409 Y111.558 E1155.74149
G1 X134.225 Y107.116 E1163.5111
G1 X129.101 Y102.478 E1172.31087
G1 X123.173 Y97.637 E1182.05564
G1 X117.499 Y93.29 E1191.15647
G1 X111.823 Y97.637 E1200.25932
G1 X105.899 Y102.478 E1210.00015
G1 X100.767 Y107.125 E1218.81517
G1 X96.587 Y111.558 E1226.57293
G1 X93.481 Y115.794 E1233.26089
G1 X91.588 Y119.758 E1238.85398
G1 X90.914 Y123.717 E1243.96727
G1 X90.762 Y124.738 E1245.28157
G1 X90.608 Y127.431 E1248.71601
G1 X90.918 Y131.094 E1253.39655
G1 X92.104 Y134.968 E1258.55506
G1 X94.566 Y138.432 E1263.96606
G1 X98.79 Y140.978 E1270.24564
G1 X105.492 Y142.013 E1278.88004
G1 X107.918 Y141.702 E1281.9942
G1 X110.179 Y140.862 E1285.06525
G1 X112.208 Y139.645 E1288.07772
G1 X113.866 Y138.263 E1290.82594
G1 X115.113 Y136.884 E1293.19316
G1 X115.824 Y135.799 E1294.84481
G1 X116.108 Y134.96 E1295.9726
G1 X116.37 Y134.636 E1296.50313
G1 X116.696 Y134.385 E1297.02699
G1 X116.932 Y134.276 E1297.35797
G1 X117.186 Y134.209 E1297.69244
G1 X117.5 Y134.194 E1298.09269
G1 F2700 E1293.09269
G0 F7500 X117.5 Y133.602
G0 X117.516 Y129.689
G0 X117.5 Y128.488
;TYPE:SKIN
G1 F2700 E1298.09269
G1 F1350 X117.072 Y128.497 E1298.63776
G1 X116.485 Y128.552 E1299.38842
G1 X115.91 Y128.649 E1300.13088
G1 X115.228 Y128.836 E1301.03128
G1 X114.653 Y129.048 E1301.81157
G1 X114.095 Y129.311 E1302.59699
G1 X113.59 Y129.599 E1303.33719
G1 X113.125 Y129.924 E1304.05953
G1 X112.598 Y130.354 E1304.92554
G1 X112.305 Y130.636 E1305.44332
G1 X112.062 Y130.897 E1305.89737
G1 X111.77 Y131.243 E1306.47382
G1 X111.406 Y131.751 E1307.26953
G1 X111.226 Y132.044 E1307.70737
G1 X110.926 Y132.596 E1308.50728
G1 X110.628 Y133.34 E1309.52774
G1 X109.905 Y134.144 E1310.90445
G1 X108.909 Y134.973 E1312.55439
G1 X107.695 Y135.701 E1314.35673
G1 X106.54 Y136.129 E1315.92504
G1 X105.568 Y136.253 E1317.17266
G1 X100.769 Y135.514 E1323.35496
G1 X98.522 Y134.16 E1326.6952
G1 X97.283 Y132.416 E1329.41906
G1 X96.546 Y130.013 E1332.61932
G1 X96.32 Y127.351 E1336.02087
G1 X96.438 Y125.314 E1338.61881
G1 X96.542 Y124.612 E1339.52238
G1 X97.072 Y121.494 E1343.54929
G1 X98.39 Y118.734 E1347.44355
G1 X100.971 Y115.214 E1353.00106
G1 X104.755 Y111.201 E1360.02385
G1 X109.615 Y106.802 E1368.37021
G1 X115.363 Y102.105 E1377.8215
G1 X117.496 Y100.471 E1381.24261
G1 X119.629 Y102.105 E1384.66373
G1 X125.385 Y106.802 E1394.12291
G1 X130.225 Y111.184 E1402.43586
G1 X134.025 Y115.218 E1409.49209
G1 X136.603 Y118.73 E1415.03912
G92 E0
G1 X137.92 Y121.49 E3.89372
G1 X138.45 Y124.612 E7.92564
G1 X138.554 Y125.314 E8.82921
G1 X138.672 Y127.352 E11.42842
G1 X138.45 Y130.013 E14.82828
G1 X137.713 Y132.411 E18.02246
G1 X136.465 Y134.165 E20.76333
G1 X134.229 Y135.518 E24.09092
G1 X129.434 Y136.257 E30.26819
G1 X128.457 Y136.13 E31.52261
G1 X127.296 Y135.701 E33.09853
G1 X126.093 Y134.978 E34.88558
G1 X125.09 Y134.139 E36.55052
G1 X124.364 Y133.341 E37.92413
G1 X124.065 Y132.594 E38.94861
G1 X123.791 Y132.088 E39.68126
G1 X123.583 Y131.745 E40.192
G1 X123.321 Y131.373 E40.77133
G1 X122.995 Y130.97 E41.43131
G1 X122.683 Y130.632 E42.01699
G1 X122.253 Y130.218 E42.77699
G1 X121.728 Y129.816 E43.6189
G1 X121.174 Y129.461 E44.45667
G1 X120.875 Y129.295 E44.8921
G1 X120.329 Y129.044 E45.65723
G1 X119.701 Y128.815 E46.50833
G1 X118.935 Y128.612 E47.5173
G1 X118.149 Y128.508 E48.52679
G1 X117.539 Y128.487 E49.30392
G1 X117.5 Y128.488 E49.35359
G1 F2700 E44.35359
G0 F7500 X133.114 Y134.173
G1 F2700 E49.35359
G1 F1350 X136.706 Y130.58 E55.82237
G1 F2700 E50.82237
G0 F7500 X137.087 Y125.956
G1 F2700 E55.82237
G1 F1350 X128.498 Y134.546 E71.2889
G1 F2700 E66.2889
G0 F7500 X125.948 Y132.853
G1 F2700 E71.2889
G1 F1350 X136.531 Y122.27 E90.345
G1 F2700 E85.345
G0 F7500 X135.202 Y119.357
G1 F2700 E90.345
G1 F1350 X124.326 Y130.232 E109.92778
G1 F2700 E104.92778
G0 F7500 X122.066 Y128.25
G1 F2700 E109.92778
G1 F1350 X133.406 Y116.91 E130.34695
G1 F2700 E125.34695
G0 F7500 X131.426 Y114.647
G1 F2700 E130.34695
G1 F1350 X118.972 Y127.101 E152.77203
