;FLAVOR:Marlin
;TIME:619
;Filament used: 2.32124m
;Layer height: 5
;MINX:77.027
;MINY:76.972
;MINZ:0.3
;MAXX:142.943
;MAXY:144.064
;MAXZ:15.3
;TARGET_MACHINE.NAME:Creality Ender-3
;POSTPROCESSED
;  [SearchAndReplace]
;  [SearchAndReplace]
;  [SearchAndReplace]








G21 ; set units to mm

G28.1 ; Home all axes
G1 Z2.0 F3000 ; Move Z Axis up little to prevent scratching of Heat Bed
G1 X0.1 Y20 Z0.3 F5000.0 ; Move to start position

G1 X0.4 Y200.0 Z0.3 F5000.0 ; Move to side a little


G1 Z2.0 F3000 ; Move Z Axis up little to prevent scratching of Heat Bed
G1 X5 Y20 Z0.3 F5000.0 ; Move over to prevent blob squish








G0 F6000 X110 Y135.753 Z0.3

G1 F2700 
G1 F1200 X107.486 Y139.209 
G1 X106.319 Y140.201 
G1 X105.055 Y141.11 
G1 X104.017 Y141.742 
G1 X102.965 Y142.271 
G1 X101.399 Y142.656 
G1 X99.834 Y142.891 
G1 X98.187 Y142.709 
G1 X96.507 Y142.36 
G1 X96.317 Y142.297 
G1 X94.063 Y141.967 
G1 X92.558 Y141.663 
G1 X91.201 Y141.105 
G1 X89.889 Y140.437 
G1 X87.715 Y138.932 
G1 X85.62 Y137.32 
G1 X83.623 Y135.387 
G1 X81.848 Y133.356 
G1 X81.277 Y132.195 
G1 X80.572 Y130.452 
G1 X80.475 Y130.316 
G1 X79.78 Y129.091 
G1 X79.17 Y127.825 
G1 X78.697 Y126.528 
G1 X78.353 Y125.266 
G1 X78.189 Y122.449 
G1 X78.232 Y119.614 
G1 X79.013 Y116.038 
G1 X80.067 Y112.547 
G1 X81.256 Y110.459 
G1 X82.906 Y107.889 
G1 X84.035 Y105.086 
G1 X85.051 Y102.652 
G1 X85.764 Y101.384 
G1 X86.579 Y100.135 
G1 X86.791 Y99.882 
G1 X87.571 Y98.181 
G1 X87.56 Y98.164 
G1 X89.146 Y95.083 
G1 X90.517 Y92.582 
G1 X91.879 Y90.509 
G1 X93.288 Y88.484 
G1 X94.77 Y86.77 
G1 X97.698 Y82.475 
G1 X99.367 Y80.63 
G1 X99.676 Y79.968 
G1 X99.938 Y79.367 
G1 X100.213 Y78.95 
G1 X100.496 Y78.62 
G1 X100.991 Y78.35 
G1 X101.499 Y78.166 
G1 X102.788 Y78.362 
G1 X103.069 Y78.267 
G1 X103.362 Y77.919 
G1 X103.53 Y77.69 
G1 X104.172 Y77.343 
G1 X104.816 Y77.117 
G1 X106.177 Y77.305 
G1 X107.609 Y77.632 
G1 X109.016 Y78.072 
G1 X110.3 Y78.586 
G1 X111.486 Y79.51 
G1 X112.683 Y80.509 
G1 X114.6 Y81.799 
G1 X118.562 Y85.186 
G1 X122.636 Y88.748 
G1 X124.711 Y90.683 
G1 X126.736 Y92.645 
G1 X129.238 Y95.274 
G1 X131.659 Y97.918 
G1 X133.193 Y99.839 
G1 X134.695 Y101.826 
G1 X135.386 Y102.866 
G1 X136.02 Y103.898 
G1 X137.168 Y105.947 
G1 X138.229 Y107.963 
G1 X139.169 Y110.289 
G1 X140.063 Y112.698 
G1 X140.822 Y115.006 
G1 X141.512 Y117.339 
G1 X141.686 Y118.724 
G1 X141.776 Y120.077 
G1 X141.807 Y122.241 
G1 X141.776 Y124.414 
G1 X141.62 Y125.69 
G1 X141.408 Y127.023 
G1 X141.166 Y128.137 
G1 X140.86 Y129.264 
G1 X140.293 Y130.498 
G1 X139.642 Y131.677 
G1 X138.733 Y132.738 
G1 X137.736 Y133.724 
G1 X135.78 Y135.128 
G1 X133.719 Y136.425 
G1 X132.309 Y136.902 
G1 X130.826 Y137.254 
G1 X129.34 Y137.319 
G1 X127.853 Y137.3 
G1 X125.864 Y137.165 
G1 X123.895 Y136.958 
G1 X122.514 Y136.614 
G1 X121.204 Y136.191 
G1 X120.303 Y135.75 
G1 X119.015 Y135.077 
G1 X117.788 Y134.699 
G1 X116.945 Y134.423 
G1 X115.885 Y133.838 
G1 X114.899 Y133.151 
G1 X114.358 Y132.61 
G1 X113.606 Y131.789 
G1 X113.451 Y131.682 
G1 X113.203 Y131.641 
G1 X112.889 Y131.781 
G1 X110 Y135.753 
G1 F2700 
G0 F6000 X110 Y134.222

G1 F2700 
G1 F1200 X106.818 Y138.593 
G1 X105.759 Y139.493 
G1 X104.571 Y140.346 
G1 X103.561 Y140.962 
G1 X102.653 Y141.419 
G1 X101.215 Y141.772 
G1 X99.813 Y141.983 
G1 X98.335 Y141.821 
G1 X96.736 Y141.488 
G1 X96.477 Y141.405 
G1 X95.734 Y141.308 
G1 X94.24 Y141.083 
G1 X92.819 Y140.795 
G1 X91.569 Y140.281 
G1 X90.349 Y139.661 
G1 X88.255 Y138.212 
G1 X86.208 Y136.637 
G1 X84.267 Y134.755 
G1 X82.604 Y132.856 
G1 X82.097 Y131.819 
G1 X81.379 Y130.059 
G1 X81.225 Y129.817 
G1 X80.58 Y128.679 
G1 X80.002 Y127.481 
G1 X79.553 Y126.24 
G1 X79.245 Y125.118 
G1 X79.089 Y122.437 
G1 X79.128 Y119.714 
G1 X79.881 Y116.271 
G1 X80.899 Y112.907 
G1 X82.037 Y110.903 
G1 X83.711 Y108.297 
G1 X84.867 Y105.43 
G1 X85.863 Y103.04 
G1 X86.532 Y101.848 
G1 X87.305 Y100.668 
G1 X87.559 Y100.348 
G1 X88.363 Y98.61 
G1 X88.36 Y98.578 
G1 X89.934 Y95.515 
G1 X91.281 Y93.054 
G1 X92.619 Y91.021 
G1 X94 Y89.032 
G1 X95.482 Y87.318 
G1 X98.406 Y83.026 
G1 X100.126 Y81.123 
G1 X100.497 Y80.338 
G1 X100.73 Y79.8 
G1 X101.025 Y79.354 
G1 X101.357 Y79.174 
G1 X101.591 Y79.09 
G1 X102.73 Y79.261 
G1 X103.121 Y79.206 
G1 X103.496 Y79.048 
G1 X103.726 Y78.87 
G1 X104.072 Y78.472 
G1 X104.138 Y78.382 
G1 X104.532 Y78.167 
G1 X104.907 Y78.036 
G1 X106.025 Y78.193 
G1 X107.357 Y78.496 
G1 X108.712 Y78.92 
G1 X109.848 Y79.374 
G1 X110.909 Y80.202 
G1 X112.185 Y81.264 
G1 X114.057 Y82.519 
G1 X117.977 Y85.871 
G1 X122.02 Y89.404 
G1 X124.083 Y91.331 
G1 X126.096 Y93.281 
G1 X128.57 Y95.882 
G1 X130.991 Y98.526 
G1 X132.473 Y100.383 
G1 X133.952 Y102.334 
G1 X134.626 Y103.35 
G1 X135.252 Y104.366 
G1 X136.704 Y106.956 
G1 X136.692 Y106.976 
G1 X137.413 Y108.351 
G1 X138.321 Y110.601 
G1 X139.216 Y113.01 
G1 X139.958 Y115.261 
G1 X140.624 Y117.523 
G1 X140.79 Y118.837 
G1 X140.876 Y120.089 
G1 X140.903 Y122.227 
G1 X140.872 Y124.35 
G1 X140.728 Y125.546 
G1 X140.516 Y126.875 
G1 X140.293 Y127.902 
G1 X140.012 Y128.949 
G1 X139.489 Y130.086 
G1 X138.894 Y131.161 
G1 X138.069 Y132.127 
G1 X137.152 Y133.032 
G1 X135.296 Y134.364 
G1 X133.324 Y135.605 
G1 X132.061 Y136.031 
G1 X130.702 Y136.358 
G1 X129.312 Y136.415 
G1 X127.884 Y136.4 
G1 X125.956 Y136.269 
G1 X124.056 Y136.066 
G1 X122.754 Y135.742 
G1 X121.536 Y135.351 
G1 X120.698 Y134.941 
G1 X119.349 Y134.238 
G1 X117.308 Y133.594 
G1 X116.345 Y133.063 
G1 X115.482 Y132.458 
G1 X114.993 Y131.973 
G1 X114.213 Y131.127 
G1 X113.83 Y130.834 
G1 X113.317 Y130.74 
G1 X112.964 Y130.761 
G1 X112.45 Y130.976 
G1 X112.172 Y131.238 
G1 X110 Y134.222 
G1 F2700 
G0 F6000 X111.673 Y135.437
G0 X108.351 Y140.006
G0 X107.04 Y141.118
G0 X105.697 Y142.083
G0 X104.575 Y142.766
G0 X103.375 Y143.373
G0 X101.637 Y143.799
G0 X99.861 Y144.064
G0 X98.001 Y143.86
G0 X92.217 Y142.786
G0 X90.711 Y142.161
G0 X89.3 Y141.446
G0 X87.018 Y139.864
G0 X84.863 Y138.208
G0 X83.182 Y136.583
G0 X81.018 Y134.176
G0 X82.971 Y132.469
G1 F2700 
G1 F1200 X87.512 Y137.009 
G1 F2700 
G0 F6000 X91.706 Y139.789
G1 F2700 
G1 F1200 X81.883 Y129.966 
G1 F2700 
G0 F6000 X80.374 Y127.043
G1 F2700 
G1 F1200 X93.818 Y140.487 
G1 F2700 
G0 F6000 X95.515 Y140.769
G1 F2700 
G1 F1200 X79.738 Y124.993 
G1 F2700 
G0 F6000 X79.651 Y123.491
G1 F2700 
G1 F1200 X97.243 Y141.083 
G1 F2700 
G0 F6000 X98.96 Y141.387
G1 F2700 
G1 F1200 X79.595 Y122.021 
G0 F6000 X79.614 Y120.626
G1 F1200 X100.379 Y141.392 
G0 F6000 X101.572 Y141.17
G1 F1200 X79.725 Y119.323 
G0 F6000 X79.979 Y118.162
G1 F1200 X102.668 Y140.851 
G0 F6000 X103.589 Y140.359
G1 F1200 X80.233 Y117.002 
G0 F6000 X80.522 Y115.877
G1 F1200 X104.457 Y139.812 
G0 F6000 X105.28 Y139.221
G1 F1200 X80.851 Y114.792 
G0 F6000 X81.179 Y113.706
G1 F1200 X106.057 Y138.584 
G0 F6000 X106.74 Y137.853
G1 F1200 X81.59 Y112.702 
G0 F6000 X82.101 Y111.8
G1 F1200 X107.336 Y137.034 
G0 F6000 X107.931 Y136.216
G1 F1200 X82.626 Y110.91 
G0 F6000 X83.178 Y110.048
G1 F1200 X108.527 Y135.398 
G0 F6000 X109.123 Y134.579
G1 F1200 X83.731 Y109.186 
G0 F6000 X84.251 Y108.293
G1 F1200 X109.719 Y133.761 
G0 F6000 X110.315 Y132.942
G1 F1200 X84.658 Y107.285 
G0 F6000 X85.064 Y106.277
G1 F1200 X110.91 Y132.124 
G0 F6000 X111.506 Y131.305
G1 F1200 X85.474 Y105.273 
G0 F6000 X85.889 Y104.274
G1 F1200 X112.165 Y130.55 
G0 F6000 X113.273 Y130.243
G1 F1200 X86.306 Y103.276 
G0 F6000 X86.813 Y102.369
G1 F1200 X117.608 Y133.164 
G1 F2700 
G0 F6000 X119.731 Y133.873
G1 F2700 
G1 F1200 X87.357 Y101.5 
G0 F6000 X87.944 Y100.672
G1 F1200 X122.363 Y135.091 
G1 F2700 
G0 F6000 X124.272 Y135.586
G1 F2700 
G1 F1200 X88.401 Y99.715 
G0 F6000 X88.839 Y98.738
G1 F1200 X125.856 Y135.755 
G1 F2700 
G0 F6000 X127.379 Y135.864
G1 F2700 
G1 F1200 X89.319 Y97.804 
G0 F6000 X89.799 Y96.87
G1 F1200 X128.839 Y135.91 
G0 F6000 X130.22 Y135.877
G1 F1200 X90.279 Y95.936 
G0 F6000 X90.776 Y95.018
G1 F1200 X131.426 Y135.668 
G0 F6000 X132.52 Y135.348
G1 F1200 X91.275 Y94.104 
G0 F6000 X91.784 Y93.198
G1 F1200 X133.493 Y134.907 
G0 F6000 X134.361 Y134.361
G1 F1200 X92.345 Y92.345 
G0 F6000 X92.907 Y91.493
G1 F1200 X135.219 Y133.804 
G0 F6000 X136.042 Y133.213
G1 F1200 X93.482 Y90.654 
G0 F6000 X94.061 Y89.819
G1 F1200 X136.861 Y132.618 
G0 F6000 X137.571 Y131.914
G1 F1200 X94.674 Y89.017 
G0 F6000 X95.33 Y88.259
G1 F1200 X138.234 Y131.163 
G0 F6000 X138.794 Y130.308
G1 F1200 X95.971 Y87.485 
G0 F6000 X96.544 Y86.645
G1 F1200 X139.268 Y129.369 
G0 F6000 X139.657 Y128.343
G1 F1200 X97.118 Y85.804 
G0 F6000 X97.691 Y84.963
G1 F1200 X139.933 Y127.205 
G0 F6000 X140.149 Y126.006
G1 F1200 X98.264 Y84.122 
G0 F6000 X98.844 Y83.287
G1 F1200 X140.319 Y124.763 
G0 F6000 X140.385 Y123.415
G1 F1200 X99.515 Y82.544 
G0 F6000 X100.186 Y81.801
G1 F1200 X140.4 Y122.016 
G0 F6000 X140.383 Y120.584
G1 F1200 X100.757 Y80.958 
G0 F6000 X101.204 Y79.991
G1 F1200 X140.307 Y119.094 
G1 F2700 
G0 F6000 X140.084 Y117.456
G1 F2700 
G1 F1200 X102.335 Y79.708 
G0 F6000 X103.596 Y79.554
G1 F1200 X139.494 Y115.452 
G1 F2700 
G0 F6000 X138.8 Y113.344
G1 F2700 
G1 F1200 X104.358 Y78.902 
G0 F6000 X105.493 Y78.623
G1 F1200 X137.976 Y111.106 
G1 F2700 
G0 F6000 X137.036 Y108.752
G1 F2700 
G1 F1200 X107.281 Y78.997 
G1 F2700 
G0 F6000 X109.453 Y79.755
G1 F2700 
G1 F1200 X135.463 Y105.765 
G1 F2700 
G0 F6000 X132.942 Y101.83
G1 F2700 
G1 F1200 X115.663 Y84.55 
G1 F2700 

G0 F300 X115.663 Y84.55 Z5.3
G0 F6000 X117.328 Y82.599
G0 X123.431 Y87.893
G0 X127.576 Y91.836
G0 X132.526 Y97.138
G0 X135.633 Y101.129
G0 X137.037 Y103.323
G0 X139.289 Y107.475
G0 X141.159 Y112.301
G0 X141.941 Y114.672
G0 X142.658 Y117.102
G0 X142.844 Y118.591
G0 X142.943 Y120.031
G0 X142.942 Y124.495
G0 X142.558 Y127.22
G0 X141.957 Y129.67
G0 X141.332 Y131.028
G0 X140.606 Y132.344
G0 X139.592 Y133.53
G0 X138.491 Y134.619
G0 X136.413 Y136.113
G0 X134.23 Y137.485
G0 X132.626 Y138.027
G0 X130.99 Y138.415
G0 X129.374 Y138.486
G0 X127.808 Y138.467
G0 X124.477 Y138.179
G0 X110.946 Y136.437
G0 X110 Y135.75





G1 F2700 
G1 F1350 X107.486 Y139.209 
G1 X106.335 Y140.185 
G1 X105.063 Y141.103 
G1 X104.02 Y141.738 
G1 X102.965 Y142.272 
G1 X101.399 Y142.656 
G1 X99.834 Y142.891 
G1 X98.187 Y142.709 
G1 X96.511 Y142.359 
G1 X96.277 Y142.289 
G1 X95.619 Y142.2 
G1 X94.079 Y141.967 
G1 X92.558 Y141.663 
G1 X91.213 Y141.109 
G1 X89.889 Y140.437 
G1 X87.736 Y138.944 
G1 X85.624 Y137.32 
G1 X83.623 Y135.387 
G1 X81.848 Y133.356 
G1 X81.277 Y132.195 
G1 X80.572 Y130.452 
G1 X80.475 Y130.316 
G1 X79.788 Y129.103 
G1 X79.17 Y127.825 
G1 X78.697 Y126.528 
G1 X78.353 Y125.266 
G1 X78.189 Y122.449 
G1 X78.232 Y119.614 
G1 X79.013 Y116.038 
G1 X80.067 Y112.547 
G1 X81.256 Y110.459 
G1 X82.906 Y107.889 
G1 X84.027 Y105.11 
G1 X85.051 Y102.652 
G1 X85.764 Y101.384 
G1 X86.58 Y100.133 
G1 X86.792 Y99.874 
G1 X87.559 Y98.205 
G1 X87.548 Y98.189 
G1 X89.146 Y95.083 
G1 X90.513 Y92.59 
G1 X91.867 Y90.524 
G1 X93.288 Y88.484 
G1 X94.77 Y86.77 
G1 X97.698 Y82.475 
G1 X99.367 Y80.628 
G1 X99.696 Y79.931 
G1 X99.942 Y79.359 
G1 X100.209 Y78.953 
G1 X100.493 Y78.619 
G1 X100.99 Y78.35 
G1 X101.499 Y78.166 
G1 X102.752 Y78.356 
G1 X102.915 Y78.331 
G1 X103.112 Y78.216 
G1 X103.39 Y77.885 
G1 X103.531 Y77.69 
G1 X104.172 Y77.343 
G1 X104.816 Y77.117 
G1 X106.177 Y77.305 
G1 X107.609 Y77.632 
G1 X109.016 Y78.072 
G1 X110.3 Y78.586 
G1 X111.486 Y79.51 
G1 X112.683 Y80.509 
G1 X113.669 Y81.164 
G1 X114.599 Y81.798 
G1 X118.562 Y85.186 
G1 X122.636 Y88.748 
G1 X124.711 Y90.683 
G1 X126.736 Y92.645 
G1 X129.214 Y95.246 
G1 X131.659 Y97.918 
G1 X133.177 Y99.819 
G1 X134.696 Y101.826 
G1 X135.363 Y102.83 
G1 X136.041 Y103.926 
G1 X137.156 Y105.919 
G1 X138.229 Y107.963 
G1 X139.169 Y110.289 
G1 X140.063 Y112.698 
G1 X140.822 Y115.006 
G1 X141.513 Y117.339 
G1 X141.686 Y118.712 
G1 X141.776 Y120.077 
G1 X141.807 Y122.241 
G1 X141.776 Y124.414 
G1 X141.62 Y125.69 
G1 X141.408 Y127.023 
G1 X141.166 Y128.137 
G1 X140.86 Y129.264 
G1 X140.293 Y130.498 
G1 X139.642 Y131.677 
G1 X138.733 Y132.738 
G1 X137.736 Y133.724 
G1 X135.78 Y135.128 
G1 X133.719 Y136.425 
G1 X132.309 Y136.902 
G1 X130.826 Y137.254 
G1 X129.355 Y137.319 
G1 X127.869 Y137.304 
G1 X125.888 Y137.165 
G1 X123.895 Y136.958 
G1 X122.522 Y136.618 
G1 X121.204 Y136.191 
G1 X120.295 Y135.749 
G1 X119.032 Y135.084 
G1 X117.8 Y134.703 
G1 X116.941 Y134.419 
G1 X115.885 Y133.838 
G1 X114.902 Y133.154 
G1 X114.361 Y132.617 
G1 X113.567 Y131.757 
G1 X113.407 Y131.666 
G1 X113.269 Y131.64 
G1 X113.066 Y131.672 
G1 X112.885 Y131.781 
G1 X110 Y135.75 
G1 F2700 
G0 F7500 X110 Y134.218

G1 F2700 
G1 F1350 X106.818 Y138.593 
G1 X105.775 Y139.477 
G1 X104.567 Y140.346 
G1 X103.576 Y140.95 
G1 X102.649 Y141.42 
G1 X101.214 Y141.773 
G1 X99.813 Y141.983 
G1 X98.336 Y141.821 
G1 X96.73 Y141.482 
G1 X96.447 Y141.401 
G1 X95.739 Y141.305 
G1 X94.247 Y141.079 
G1 X92.814 Y140.795 
G1 X91.605 Y140.297 
G1 X90.341 Y139.657 
G1 X88.276 Y138.224 
G1 X86.212 Y136.636 
G1 X84.267 Y134.755 
G1 X82.604 Y132.856 
G1 X82.097 Y131.819 
G1 X81.379 Y130.059 
G1 X81.233 Y129.829 
G1 X80.58 Y128.675 
G1 X80.002 Y127.481 
G1 X79.553 Y126.24 
G1 X79.245 Y125.118 
G1 X79.089 Y122.437 
G1 X79.128 Y119.714 
G1 X79.881 Y116.271 
G1 X80.899 Y112.907 
G1 X82.037 Y110.903 
G1 X83.724 Y108.276 
G1 X84.855 Y105.454 
G1 X85.867 Y103.032 
G1 X86.528 Y101.856 
G1 X87.305 Y100.667 
G1 X87.561 Y100.349 
G1 X88.351 Y98.634 
G1 X88.349 Y98.595 
G1 X89.934 Y95.515 
G1 X91.285 Y93.05 
G1 X92.607 Y91.036 
G1 X93.996 Y89.04 
G1 X95.447 Y87.364 
G1 X98.41 Y83.027 
G1 X100.127 Y81.127 
G1 X100.522 Y80.284 
G1 X100.738 Y79.787 
G1 X101.019 Y79.355 
G1 X101.356 Y79.171 
G1 X101.588 Y79.09 
G1 X102.729 Y79.266 
G1 X103.145 Y79.201 
G1 X103.625 Y78.991 
G1 X104.137 Y78.385 
G1 X104.532 Y78.171 
G1 X104.912 Y78.037 
G1 X106.025 Y78.193 
G1 X107.357 Y78.496 
G1 X108.712 Y78.92 
G1 X109.848 Y79.374 
G1 X110.91 Y80.202 
G1 X112.147 Y81.233 
G1 X114.052 Y82.514 
G1 X117.913 Y85.815 
G1 X122.02 Y89.404 
G1 X124.083 Y91.331 
G1 X126.085 Y93.265 
G1 X128.55 Y95.854 
G1 X130.991 Y98.525 
G1 X132.457 Y100.363 
G1 X133.975 Y102.366 
G1 X134.594 Y103.302 
G1 X135.253 Y104.366 
G1 X136.368 Y106.355 
G1 X137.409 Y108.343 
G1 X138.321 Y110.601 
G1 X139.216 Y113.01 
G1 X139.958 Y115.261 
G1 X140.625 Y117.523 
G1 X140.79 Y118.825 
G1 X140.876 Y120.089 
G1 X140.903 Y122.227 
G1 X140.872 Y124.35 
G1 X140.728 Y125.546 
G1 X140.516 Y126.875 
G1 X140.293 Y127.902 
G1 X140.012 Y128.949 
G1 X139.489 Y130.086 
G1 X138.894 Y131.161 
G1 X138.069 Y132.127 
G1 X137.152 Y133.032 
G1 X135.296 Y134.364 
G1 X133.324 Y135.605 
G1 X132.061 Y136.031 
G1 X130.702 Y136.358 
G1 X129.323 Y136.415 
G1 X127.904 Y136.404 
G1 X125.98 Y136.269 
G1 X124.051 Y136.066 
G1 X122.766 Y135.746 
G1 X121.54 Y135.35 
G1 X120.698 Y134.941 
G1 X119.353 Y134.242 
G1 X118.081 Y133.847 
G1 X117.298 Y133.587 
G1 X116.369 Y133.074 
G1 X115.478 Y132.454 
G1 X115.02 Y132 
G1 X114.205 Y131.124 
G1 X113.829 Y130.838 
G1 X113.316 Y130.74 
G1 X112.965 Y130.76 
G1 X112.486 Y130.95 
G1 X112.164 Y131.242 
G1 X110 Y134.218 
G1 F2700 
G0 F7500 X111.675 Y135.435
G0 X123.696 Y138.111
G0 X127.827 Y138.468
G0 X129.388 Y138.486
G0 X130.99 Y138.415
G0 X132.626 Y138.027
G0 X134.23 Y137.485
G0 X136.413 Y136.113
G0 X138.491 Y134.619
G0 X139.592 Y133.53
G0 X140.505 Y132.463
G0 X141.332 Y131.028
G0 X139.212 Y129.488
G1 F2700 
G1 F1350 X134.3 Y134.4 
G1 F2700 
G0 F7500 X131.677 Y135.609
G1 F2700 
G1 F1350 X139.891 Y127.395 
G1 F2700 
G0 F7500 X140.202 Y125.671
G1 F2700 
G1 F1350 X129.985 Y135.888 
G0 F7500 X128.548 Y135.909
G1 F1350 X140.375 Y124.083 
G0 F7500 X140.396 Y122.648
G1 F1350 X127.191 Y135.853 
G0 F7500 X125.874 Y135.755
G1 F1350 X140.39 Y121.24 
G0 F7500 X140.359 Y119.857
G1 F1350 X124.594 Y135.621 
G0 F7500 X123.409 Y135.392
G1 F1350 X140.251 Y118.55 
G0 F7500 X140.049 Y117.338
G1 F1350 X122.313 Y135.074 
G0 F7500 X121.296 Y134.676
G1 F1350 X139.727 Y116.246 
G0 F7500 X139.398 Y115.16
G1 F1350 X120.359 Y134.2 
G0 F7500 X119.408 Y133.737
G1 F1350 X139.048 Y114.097 
G0 F7500 X138.693 Y113.037
G1 F1350 X118.329 Y133.401 
G0 F7500 X117.299 Y133.017
G1 F1350 X138.309 Y112.006 
