;FLAVOR:Marlin
;TIME:64
;Filament used: 0.130195m
;Layer height: 5
;MINX:97.553
;MINY:97.132
;MINZ:0.3
;MAXX:122.443
;MAXY:122.875
;MAXZ:5.
;TARGET_MACHINE.NAME:Creality Ender-3
;Generated with Cura_SteamEngine 5.10.1
; Ender 3 Custom Start G-code
G21 ; set units to mm
G28.1 ; Home all axes
G1 Z2.0 F3000 ; Move Z Axis up little to prevent scratching of Heat Bed
G1 X0.1 Y20 Z0.3 F5000.0 ; Move to start position
G1 X0.1 Y200.0 Z0.3 F1500.0 E15 ; Draw the first line
G1 X0.4 Y200.0 Z0.3 F5000.0 ; Move to side a little
G1 X0.4 Y20 Z0.3 F1500.0 E30 ; Draw the second line
G92 E0 ; Reset Extruder
G1 Z2.0 F3000 ; Move Z Axis up little to prevent scratching of Heat Bed
G1 X5 Y20 Z0.3 F5000.0 ; Move over to prevent blob squish
G92 E0
G92 E0
G1 F2700 E-5
;LAYER_COUNT:2
;LAYER:0
;MESH:hart.obj
G0 F6000 X110 Y118.105 Z0.3
;TYPE:WALL-INNER
G1 F2700 E0
G1 F1200 X110.168 Y117.874 E0.00436
G1 X110.434 Y117.65 E0.00968
G1 X110.799 Y117.465 E0.01593
G1 X111.108 Y117.394 E0.02077
G1 X111.494 Y117.382 E0.02667
G1 X111.989 Y117.543 E0.03463
G1 X112.311 Y117.786 E0.04079
G1 X112.805 Y118.279 E0.05145
G1 X113.045 Y118.447 E0.05593
G1 X113.292 Y118.581 E0.06022
G1 X114.124 Y118.847 E0.07357
G1 X115.03 Y119.324 E0.08921
G1 X115.79 Y119.514 E0.10118
G1 X116.463 Y119.585 E0.11152
G1 X117.195 Y119.636 E0.12273
G1 X117.717 Y119.643 E0.13071
G1 X118.165 Y119.626 E0.13756
G1 X118.581 Y119.526 E0.1441
G1 X118.938 Y119.404 E0.14986
G1 X119.603 Y118.986 E0.16186
G1 X120.27 Y118.509 E0.17439
G1 X120.564 Y118.218 E0.18071
G1 X120.799 Y117.942 E0.18625
G1 X120.971 Y117.628 E0.19172
G1 X121.137 Y117.268 E0.19778
G1 X121.226 Y116.944 E0.20291
G1 X121.301 Y116.594 E0.20838
G1 X121.382 Y116.091 E0.21616
G1 X121.433 Y115.685 E0.22242
G1 X121.443 Y114.774 E0.23634
G1 X121.432 Y114.09 E0.24679
G1 X121.402 Y113.642 E0.25365
G1 X121.347 Y113.209 E0.26032
G1 X121.079 Y112.306 E0.27471
G1 X120.82 Y111.521 E0.28734
G1 X120.469 Y110.578 E0.30271
G1 X120.128 Y109.73 E0.31668
G1 X119.753 Y109.016 E0.329
G1 X119.297 Y108.203 E0.34324
G1 X119.075 Y107.84 E0.34974
G1 X118.837 Y107.483 E0.3563
G1 X118.267 Y106.732 E0.3707
G1 X117.697 Y106.013 E0.38472
G1 X116.962 Y105.198 E0.40149
G1 X115.786 Y103.964 E0.42754
G1 X114.995 Y103.197 E0.44437
G1 X114.195 Y102.455 E0.46104
G1 X112.524 Y100.993 E0.49496
G1 X111.058 Y99.74 E0.52443
G1 X110.364 Y99.272 E0.53722
G1 X109.465 Y98.551 E0.55483
G1 X109.171 Y98.434 E0.55966
G1 X108.693 Y98.282 E0.56732
G1 X108.177 Y98.175 E0.57538
G1 X107.878 Y98.399 E0.58108
G1 X107.607 Y98.529 E0.58568
G1 X107.309 Y98.602 E0.59036
G1 X106.997 Y98.608 E0.59513
G1 X106.809 Y98.984 E0.60156
G1 X106.094 Y99.778 E0.61788
G1 X104.919 Y101.497 E0.64969
G1 X104.334 Y102.171 E0.66333
G1 X103.82 Y102.911 E0.6771
G1 X103.311 Y103.69 E0.69131
G1 X102.8 Y104.619 E0.70751
G1 X102.307 Y105.57 E0.72388
G1 X101.828 Y106.586 E0.74104
G1 X101.668 Y106.812 E0.74527
G1 X101.392 Y107.234 E0.75298
G1 X101.176 Y107.621 E0.75975
G1 X100.291 Y109.771 E0.79527
G1 X99.6 Y110.846 E0.8148
G1 X99.208 Y111.535 E0.82691
G1 X98.842 Y112.749 E0.84628
G1 X98.57 Y113.998 E0.86581
G1 X98.553 Y114.964 E0.88058
G1 X98.609 Y115.903 E0.89495
G1 X98.695 Y116.22 E0.89997
G1 X98.849 Y116.643 E0.90684
G1 X99.037 Y117.036 E0.9135
G1 X99.384 Y117.632 E0.92404
G1 X99.675 Y118.355 E0.93595
G1 X99.811 Y118.632 E0.94066
G1 X100.369 Y119.27 E0.95361
G1 X101.082 Y119.962 E0.96879
G1 X101.805 Y120.516 E0.98271
G1 X102.614 Y121.078 E0.99776
G1 X103.005 Y121.278 E1.00447
G1 X103.39 Y121.434 E1.01082
G1 X103.812 Y121.521 E1.0174
G1 X104.679 Y121.647 E1.03079
G1 X105.472 Y121.82 E1.04319
G1 X105.897 Y121.867 E1.04972
G1 X106.298 Y121.807 E1.05591
G1 X106.726 Y121.703 E1.06264
G1 X106.969 Y121.58 E1.06681
G1 X107.293 Y121.382 E1.07261
G1 X107.714 Y121.079 E1.08053
G1 X108.034 Y120.809 E1.08693
G1 X110 Y118.105 E1.13801
G1 F2700 E-3.86199
G0 F6000 X109.511 Y119.449
G0 X110 Y119.805
;TYPE:WALL-OUTER
G1 F2700 E1.13801
G1 F1200 X110.933 Y118.521 E1.16226
G1 X111.081 Y118.428 E1.16493
G1 X111.317 Y118.384 E1.1686
G1 X111.596 Y118.489 E1.17315
G1 X112.159 Y119.047 E1.18526
G1 X112.517 Y119.298 E1.19194
G1 X112.898 Y119.505 E1.19857
G1 X113.715 Y119.765 E1.21167
G1 X114.736 Y120.3 E1.22928
G1 X114.754 Y120.286 E1.22963
G1 X115.616 Y120.502 E1.24321
G1 X116.376 Y120.581 E1.25488
G1 X117.153 Y120.636 E1.26678
G1 X117.729 Y120.643 E1.27558
G1 X118.303 Y120.622 E1.28436
G1 X118.86 Y120.487 E1.29312
G1 X119.371 Y120.313 E1.30136
G1 X120.161 Y119.816 E1.31562
G1 X120.916 Y119.276 E1.32981
G1 X121.297 Y118.899 E1.338
G1 X121.626 Y118.514 E1.34573
G1 X121.865 Y118.078 E1.35333
G1 X122.08 Y117.612 E1.36117
G1 X122.198 Y117.181 E1.368
G1 X122.284 Y116.779 E1.37428
G1 X122.372 Y116.233 E1.38273
G1 X122.432 Y115.753 E1.39012
G1 X122.443 Y114.76 E1.40529
G1 X122.432 Y114.049 E1.41616
G1 X122.398 Y113.545 E1.42388
G1 X122.329 Y113.003 E1.43222
G1 X122.058 Y112.085 E1.44685
G1 X121.764 Y111.19 E1.46124
G1 X121.401 Y110.217 E1.47711
G1 X121.037 Y109.31 E1.49204
G1 X120.632 Y108.539 E1.50535
G1 X120.16 Y107.697 E1.5201
G1 X119.918 Y107.302 E1.52717
G1 X119.652 Y106.903 E1.5345
G1 X119.057 Y106.119 E1.54954
G1 X118.459 Y105.365 E1.56424
G1 X117.825 Y104.671 E1.5786
G1 X117.707 Y104.53 E1.58141
G1 X116.496 Y103.26 E1.60823
G1 X115.683 Y102.471 E1.62554
G1 X114.865 Y101.712 E1.64258
G1 X113.174 Y100.233 E1.67691
G1 X111.664 Y98.943 E1.70725
G1 X110.904 Y98.429 E1.72127
G1 X110.369 Y97.988 E1.73186
G1 X109.968 Y97.675 E1.73964
G1 X109.507 Y97.492 E1.74722
G1 X108.953 Y97.316 E1.7561
G1 X108.419 Y97.197 E1.76446
G1 X107.952 Y97.132 E1.77166
G1 X107.601 Y97.291 E1.77755
G1 X107.44 Y97.484 E1.78139
G1 X107.259 Y97.591 E1.7846
G1 X107.025 Y97.611 E1.78819
G1 X106.626 Y97.55 E1.79436
G1 X106.396 Y97.656 E1.79822
G1 X106.226 Y97.883 E1.80256
G1 X105.985 Y98.406 E1.81136
G1 X105.306 Y99.158 E1.82684
G1 X104.141 Y100.863 E1.85839
G1 X103.544 Y101.556 E1.87236
G1 X102.991 Y102.352 E1.88717
G1 X102.453 Y103.174 E1.90218
G1 X101.918 Y104.148 E1.91916
G1 X101.409 Y105.129 E1.93605
G1 X100.962 Y106.086 E1.95219
G1 X100.86 Y106.22 E1.95476
G1 X100.536 Y106.716 E1.96381
G1 X100.275 Y107.183 E1.97198
G1 X99.417 Y109.277 E2.00656
G1 X98.744 Y110.328 E2.02563
G1 X98.283 Y111.139 E2.03988
G1 X97.873 Y112.498 E2.06157
G1 X97.572 Y113.882 E2.08321
G1 X97.553 Y114.985 E2.10006
G1 X97.617 Y116.066 E2.11661
G1 X97.741 Y116.524 E2.12386
G1 X97.926 Y117.03 E2.13209
G1 X98.151 Y117.502 E2.14008
G1 X98.468 Y118.045 E2.14969
G1 X98.761 Y118.763 E2.16154
G1 X98.972 Y119.192 E2.16884
G1 X99.643 Y119.959 E2.18441
G1 X100.428 Y120.72 E2.20112
G1 X101.215 Y121.324 E2.21627
G1 X102.098 Y121.938 E2.23271
G1 X102.589 Y122.188 E2.24112
G1 X103.098 Y122.395 E2.24952
G1 X103.639 Y122.507 E2.25796
G1 X104.536 Y122.637 E2.27181
G1 X104.679 Y122.677 E2.27408
G1 X105.315 Y122.809 E2.284
G1 X105.917 Y122.875 E2.29325
G1 X106.491 Y122.789 E2.30212
G1 X107.074 Y122.647 E2.31129
G1 X107.456 Y122.454 E2.31783
G1 X107.847 Y122.215 E2.32483
G1 X108.328 Y121.869 E2.33388
G1 X108.771 Y121.496 E2.34273
G1 X110 Y119.805 E2.37467
G0 F6000 X109.511 Y119.449
G0 X110.256 Y117.291
G0 X110 Y116.861
;TYPE:SKIN
G1 F1200 X109.905 Y116.918 E2.37637
G1 X109.498 Y117.261 E2.3845
G1 X107.366 Y120.19 E2.43985
G1 X107.156 Y120.369 E2.44407
G1 X106.798 Y120.623 E2.45077
G1 X106.445 Y120.843 E2.45713
G1 X105.928 Y120.965 E2.46524
G1 X105.615 Y120.93 E2.47006
G1 X104.824 Y120.755 E2.48243
G1 X103.949 Y120.63 E2.49594
G1 X103.655 Y120.571 E2.50052
G1 X103.378 Y120.457 E2.5051
G1 X103.074 Y120.301 E2.51032
G1 X102.331 Y119.787 E2.52412
G1 X101.672 Y119.281 E2.53682
G1 X101.02 Y118.648 E2.5507
G1 X100.544 Y118.098 E2.56181
G1 X100.172 Y117.199 E2.57668
G1 X99.835 Y116.622 E2.58689
G1 X99.679 Y116.292 E2.59246
G1 X99.503 Y115.8 E2.60045
G1 X99.453 Y114.949 E2.61347
G1 X99.468 Y114.095 E2.62652
G1 X99.709 Y112.986 E2.64386
G1 X100.039 Y111.887 E2.6614
G1 X100.368 Y111.312 E2.67152
G1 X101.102 Y110.166 E2.69231
G1 X101.988 Y108.013 E2.72788
G1 X102.164 Y107.697 E2.73341
G1 X102.632 Y106.994 E2.74631
G1 X103.121 Y105.95 E2.76393
G1 X103.562 Y105.105 E2.77849
G1 X104.078 Y104.158 E2.79497
G1 X104.443 Y103.601 E2.80514
G1 X104.446 Y103.582 E2.80544
G1 X105.036 Y102.732 E2.82124
G1 X105.606 Y102.077 E2.83451
G1 X106.802 Y100.33 E2.86686
G1 X107.468 Y99.591 E2.88206
G1 X107.538 Y99.486 E2.88399
G1 X108.084 Y99.304 E2.89278
G1 X108.38 Y99.126 E2.89806
G1 X108.982 Y99.317 E2.90771
G1 X109.763 Y99.948 E2.92305
G1 X110.512 Y100.459 E2.9369
G1 X111.863 Y101.612 E2.96404
G1 X113.545 Y103.086 E2.99821
G1 X114.368 Y103.84 E3.01526
G1 X115.132 Y104.584 E3.03156
G1 X116.293 Y105.805 E3.0573
G1 X117.018 Y106.604 E3.07378
G1 X117.548 Y107.274 E3.08684
G1 X118.101 Y108.008 E3.10088
G1 X118.327 Y108.339 E3.107
G1 X118.512 Y108.645 E3.11247
G1 X118.956 Y109.431 E3.12626
G1 X119.308 Y110.105 E3.13788
G1 X119.621 Y110.892 E3.15082
G1 X119.972 Y111.834 E3.16618
G1 X120.26 Y112.709 E3.18025
G1 X120.46 Y113.391 E3.19111
G1 X120.506 Y113.753 E3.19668
G1 X120.532 Y114.125 E3.20238
G1 X120.539 Y114.81 E3.21285
G1 X120.532 Y115.621 E3.22524
G1 X120.489 Y115.959 E3.23045
G1 X120.412 Y116.425 E3.23766
G1 X120.317 Y116.891 E3.24493
G1 X120.173 Y117.206 E3.25022
G1 X120.019 Y117.485 E3.25509
G1 X119.687 Y117.817 E3.26226
G1 X119.089 Y118.244 E3.27349
G1 X118.495 Y118.617 E3.28421
G1 X118.043 Y118.726 E3.29131
G1 X117.692 Y118.74 E3.29668
G1 X117.228 Y118.736 E3.30377
G1 X116.557 Y118.689 E3.31405
G1 X115.936 Y118.622 E3.32359
G1 X115.353 Y118.477 E3.33277
G1 X114.532 Y118.042 E3.34696
G1 X113.655 Y117.75 E3.36109
G1 X113.377 Y117.58 E3.36607
G1 X112.817 Y117.023 E3.37813
G1 X112.384 Y116.746 E3.38599
G1 X111.915 Y116.549 E3.39376
G1 X111.362 Y116.484 E3.40227
G1 X111.002 Y116.499 E3.40777
G1 X110.358 Y116.645 E3.41786
G1 X110 Y116.861 E3.42425
G0 F6000 X110.256 Y117.291
G0 X107.694 Y120.493
G0 X106.618 Y121.254
G0 X105.886 Y121.402
G0 X103.525 Y120.992
G0 X102.851 Y120.682
G0 X101.384 Y119.613
G0 X100.164 Y118.334
G0 X99.33 Y116.508
G0 X98.992 Y115.603
G0 X99.988 Y115.545
G1 F1200 X104.673 Y120.229 E3.52547
G0 F6000 X104.53 Y121.22
G0 X105.628 Y121.368
G0 X106.472 Y121.353
G0 X106.236 Y120.378
G1 F1200 X99.975 Y114.117 E3.66076
G0 F6000 X99.001 Y113.904
G0 X99.283 Y112.677
G0 X100.237 Y112.965
G1 F1200 X107.049 Y119.777 E3.80795
G0 F6000 X107.859 Y120.367
G0 X108.455 Y119.549
G0 X107.645 Y118.959
G1 F1200 X100.599 Y111.913 E3.96019
G0 F6000 X99.735 Y111.42
G0 X100.3 Y110.497
G0 X101.137 Y111.036
G1 F1200 X108.241 Y118.141 E4.1137
G0 F6000 X109.05 Y118.73
G0 X109.646 Y117.911
G0 X108.837 Y117.322
G1 F1200 X101.656 Y110.141 E4.26887
G0 F6000 X100.732 Y109.769
G0 X101.137 Y108.763
G0 X102.067 Y109.138
G1 F1200 X109.52 Y116.591 E4.42991
G0 F6000 X110.165 Y117.356
G0 X110.675 Y117.085
G0 X110.454 Y116.111
G1 F1200 X102.487 Y108.143 E4.60207
G0 F6000 X101.615 Y107.658
G0 X102.201 Y106.748
G0 X103.041 Y107.284
G1 F1200 X111.787 Y116.03 E4.79105
G0 F6000 X111.669 Y117.023
G0 X113.263 Y118.095
G0 X114.78 Y117.608
G1 F1200 X103.496 Y106.325 E5.03486
G0 F6000 X102.594 Y105.904
G0 X103.091 Y104.93
G0 X103.976 Y105.39
G1 F1200 X116.789 Y118.204 E5.31173
G0 F6000 X116.721 Y119.201
G0 X118.411 Y119.155
G0 X118.173 Y118.173
G1 F1200 X104.474 Y104.474 E5.60773
G0 F6000 X103.602 Y103.993
G0 X104.212 Y103.049
G0 X105.03 Y103.616
G1 F1200 X119.063 Y117.648 E5.91094
G0 F6000 X119.645 Y118.464
G0 X120.083 Y118.02
G0 X120.661 Y117.342
G0 X119.749 Y116.92
G1 F1200 X105.633 Y102.804 E6.21595
G0 F6000 X104.883 Y102.15
G0 X105.436 Y101.452
G0 X106.257 Y102.014
G1 F1200 X120.009 Y115.767 E6.51311
G0 F6000 X121.003 Y115.891
G0 X121.037 Y114.364
G0 X120.035 Y114.378
G1 F1200 X106.831 Y101.174 E6.79842
G0 F6000 X106.01 Y100.612
G0 X106.701 Y99.703
G0 X107.44 Y100.369
G1 F1200 X119.712 Y112.641 E7.06358
G0 F6000 X120.664 Y112.329
G0 X119.818 Y110.031
G0 X118.889 Y110.403
G1 F1200 X108.257 Y99.771 E7.29332
G1 F2700 E2.29332
;MESH:NONMESH
G0 F300 X108.257 Y99.771 Z5.3
G0 F6000 X107.877 Y98.851
G0 X107.288 Y99.069
G0 X106.457 Y100.064
G0 X104.202 Y103.168
G0 X103.206 Y104.837
G0 X101.591 Y107.823
G0 X99.634 Y111.719
G0 X99.288 Y112.865
G0 X99.03 Y114.052
G0 X99.066 Y115.828
G0 X99.445 Y116.821
G0 X100.164 Y118.334
G0 X101.384 Y119.613
G0 X102.851 Y120.682
G0 X103.525 Y120.992
G0 X105.886 Y121.402
G0 X106.618 Y121.254
G0 X107.586 Y120.569
G0 X110 Y118.108
;TIME_ELAPSED:35.573226
;LAYER:1
;TYPE:WALL-INNER
;MESH:hart.obj
G1 F2700 E7.29332
G1 F1350 X110.167 Y117.879 E7.36549
G1 X110.516 Y117.585 E7.48169
G1 X111.017 Y117.397 E7.61796
G1 X111.49 Y117.401 E7.73841
G1 X111.879 Y117.493 E7.8402
G1 X112.248 Y117.727 E7.95147
G1 X112.8 Y118.274 E8.14936
G1 X113.046 Y118.448 E8.22609
G1 X113.292 Y118.581 E8.2973
G1 X114.119 Y118.846 E8.51844
G1 X114.975 Y119.283 E8.76318
G1 X115.368 Y119.412 E8.86851
G1 X115.791 Y119.514 E8.97932
G1 X116.485 Y119.589 E9.15707
G1 X117.206 Y119.64 E9.34113
G1 X117.724 Y119.644 E9.47304
G1 X118.164 Y119.627 E9.58517
G1 X118.581 Y119.526 E9.69443
G1 X118.938 Y119.404 E9.7905
G1 X119.603 Y118.986 E9.99052
G1 X120.27 Y118.509 E10.19933
G1 X120.564 Y118.218 E10.30467
G1 X120.799 Y117.942 E10.39698
G1 X120.971 Y117.628 E10.48815
G1 X121.137 Y117.268 E10.5891
G1 X121.226 Y116.944 E10.67466
G1 X121.301 Y116.594 E10.76581
G1 X121.382 Y116.091 E10.89555
G1 X121.433 Y115.685 E10.99975
G1 X121.443 Y114.78 E11.23022
G1 X121.432 Y114.088 E11.40646
G1 X121.402 Y113.63 E11.52334
G1 X121.348 Y113.207 E11.63193
G1 X121.104 Y112.384 E11.85052
G1 X120.82 Y111.521 E12.08187
G1 X120.469 Y110.578 E12.3381
G1 X120.128 Y109.73 E12.57085
G1 X119.733 Y108.977 E12.78738
G1 X119.315 Y108.235 E13.00425
G1 X118.84 Y107.485 E13.23031
G1 X118.256 Y106.713 E13.47681
G1 X117.699 Y106.016 E13.70402
G1 X116.743 Y104.972 E14.06449
G1 X115.774 Y103.953 E14.42257
G1 X114.945 Y103.154 E14.71576
G1 X114.194 Y102.454 E14.9772
G1 X112.524 Y100.993 E15.54223
G1 X111.058 Y99.74 E16.03332
G1 X110.364 Y99.272 E16.24648
G1 X109.465 Y98.551 E16.53993
G1 X109.171 Y98.434 E16.62051
G1 X108.693 Y98.282 E16.74824
G1 X108.177 Y98.175 E16.88243
G1 X107.878 Y98.399 E16.97757
G1 X107.607 Y98.529 E17.05411
G1 X107.309 Y98.602 E17.13224
G1 X106.997 Y98.608 E17.2117
G1 X106.809 Y98.984 E17.31875
G1 X106.094 Y99.778 E17.59084
G1 X104.919 Y101.497 E18.12107
G1 X104.335 Y102.17 E18.34797
G1 X103.808 Y102.931 E18.58369
G1 X103.3 Y103.705 E18.81945
G1 X102.789 Y104.641 E19.09101
G1 X102.295 Y105.594 E19.36435
G1 X101.828 Y106.585 E19.64332
G1 X101.663 Y106.819 E19.71624
G1 X101.402 Y107.22 E19.83807
G1 X101.177 Y107.624 E19.95583
G1 X100.306 Y109.736 E20.53759
G1 X99.6 Y110.846 E20.87258
G1 X99.208 Y111.535 E21.07444
G1 X98.842 Y112.749 E21.39732
G1 X98.57 Y113.999 E21.72308
G1 X98.553 Y114.964 E21.96886
G1 X98.608 Y115.903 E22.20838
G1 X98.694 Y116.218 E22.29153
G1 X98.848 Y116.636 E22.40497
G1 X99.047 Y117.052 E22.5224
G1 X99.378 Y117.621 E22.69003
G1 X99.682 Y118.366 E22.89492
G1 X99.813 Y118.634 E22.97089
G1 X100.369 Y119.27 E23.18601
G1 X101.082 Y119.962 E23.43902
G1 X101.853 Y120.551 E23.68609
G1 X102.603 Y121.072 E23.91864
G1 X103.027 Y121.287 E24.0397
G1 X103.387 Y121.436 E24.13891
G1 X103.818 Y121.52 E24.25073
G1 X104.679 Y121.647 E24.47235
G1 X104.938 Y121.71 E24.54023
G1 X105.471 Y121.82 E24.67882
G1 X105.897 Y121.867 E24.78796
G1 X106.299 Y121.806 E24.8915
G1 X106.729 Y121.703 E25.00409
G1 X106.967 Y121.581 E25.0722
G1 X107.303 Y121.376 E25.17243
G1 X107.727 Y121.073 E25.30513
G1 X108.031 Y120.813 E25.407
G1 X110 Y118.108 E26.25898
G1 F2700 E21.25898
G0 F7500 X109.51 Y119.45
G1 F2700 E26.25898
G0 F7500 X110 Y119.807
;TYPE:WALL-OUTER
G1 F1350 X110.892 Y118.581 E26.64507
G1 X111.06 Y118.442 E26.7006
G1 X111.356 Y118.392 E26.77704
G1 X111.596 Y118.493 E26.84335
G1 X112.155 Y119.043 E27.04304
G1 X112.517 Y119.298 E27.1558
G1 X112.898 Y119.505 E27.26622
G1 X113.714 Y119.765 E27.4843
G1 X114.597 Y120.211 E27.73621
G1 X115.094 Y120.374 E27.8694
G1 X115.619 Y120.502 E28.00701
G1 X116.397 Y120.585 E28.20625
G1 X117.168 Y120.64 E28.40308
G1 X117.74 Y120.644 E28.54874
G1 X118.302 Y120.622 E28.69197
G1 X118.86 Y120.487 E28.83816
G1 X119.371 Y120.313 E28.97562
G1 X120.161 Y119.816 E29.21329
