;FLAVOR:Marlin
;TIME:494
;Filament used: 7.74237m
;Layer height: 3
;MINX:79.081
;MINY:77.164
;MINZ:3
;MAXX:155.804
;MAXY:153.858
;MAXZ:21
;TARGET_MACHINE.NAME:Creality Ender-3
;POSTPROCESSED
;  [SearchAndReplace]
;  [SearchAndReplace]
;Generated with Cura_SteamEngine 5.10.1
G21
; Ender 3 Custom Start G-code

;MESH:ster.obj
G0 F6000 X117.5 Y141.522 Z3
;TYPE:WALL-INNER
G1 F2700 
G1 F1200 X123.242 Y147.412 
G1 X125.906 Y129.084 
G1 X125.989 Y128.659 
G1 X126.097 Y128.288 
G1 X126.22 Y127.967 
G1 X126.412 Y127.571 
G1 X126.708 Y127.092 
G1 X126.997 Y126.74 
G1 X127.181 Y126.546 
G1 X127.402 Y126.34 
G1 X127.669 Y126.124 
G1 X127.989 Y125.906 
G1 X128.368 Y125.696 
G1 X144.976 Y117.499 
G1 X128.368 Y109.304 
G1 X127.989 Y109.094 
G1 X127.669 Y108.876 
G1 X127.402 Y108.66 
G1 X127.181 Y108.454 
G1 X126.997 Y108.26 
G1 X126.718 Y107.913 
G1 X126.475 Y107.541 
G1 X126.347 Y107.307 
G1 X126.22 Y107.032 
G1 X126.097 Y106.712 
G1 X125.989 Y106.341 
G1 X125.906 Y105.912 
G1 X123.242 Y87.583 
G1 X110.155 Y101.002 
G1 X109.842 Y101.267 
G1 X109.545 Y101.477 
G1 X109.139 Y101.712 
G1 X108.898 Y101.827 
G1 X108.488 Y101.988 
G1 X108.054 Y102.101 
G1 X107.792 Y102.15 
G1 X107.491 Y102.187 
G1 X107.149 Y102.204 
G1 X106.761 Y102.192 
G1 X106.332 Y102.14 
G1 X88.078 Y99.01 
G1 X96.794 Y115.605 
G1 X96.981 Y116.06 
G1 X97.099 Y116.493 
G1 X97.157 Y116.79 
G1 X97.191 Y117.055 
G1 X97.213 Y117.5 
G1 X97.19 Y117.944 
G1 X97.157 Y118.209 
G1 X97.099 Y118.506 
G1 X97.009 Y118.837 
G1 X96.879 Y119.202 
G1 X96.696 Y119.594 
G1 X88.077 Y135.987 
G1 X106.551 Y132.824 
G1 X107.043 Y132.787 
G1 X107.491 Y132.809 
G1 X107.792 Y132.846 
G1 X108.055 Y132.896 
G1 X108.387 Y132.982 
G1 X108.786 Y133.122 
G1 X109.016 Y133.223 
G1 X109.269 Y133.353 
G1 X109.545 Y133.519 
G1 X109.93 Y133.792 
G1 X110.315 Y134.151 
G1 X117.5 Y141.522 
G1 F2700 
G0 F6000 X117.794 Y145.535
G0 X117.5 Y145.82
;TYPE:WALL-OUTER
G1 F2700 
G1 F1200 X125.336 Y153.858 
G1 X128.875 Y129.516 
G1 X128.958 Y129.172 
G1 X129.126 Y128.877 
G1 X129.335 Y128.636 
G1 X129.596 Y128.436 
G1 X151.755 Y117.499 
G1 X129.602 Y106.568 
G1 X129.161 Y106.201 
G1 X128.959 Y105.805 
G1 X128.888 Y105.557 
G1 X125.337 Y81.136 
G1 X108.113 Y98.804 
G1 X107.824 Y99.029 
G1 X107.341 Y99.201 
G1 X106.912 Y99.194 
G1 X82.595 Y95.026 
G1 X94.073 Y116.868 
G1 X94.175 Y117.164 
G1 X94.216 Y117.705 
G1 X94.09 Y118.104 
G1 X82.593 Y139.971 
G1 X106.911 Y135.802 
G1 X107.323 Y135.795 
G1 X107.734 Y135.935 
G1 X108.06 Y136.136 
G1 X117.5 Y145.82 
G1 F2700 
G0 F6000 X117.794 Y145.535
G0 X116.64 Y138.491
G0 X117.5 Y137.654
;TYPE:SKIN
G1 F2700 
G1 F1200 X112.251 Y132.268 
G1 X111.977 Y132.004 
G1 X111.4 Y131.507 
G1 X110.766 Y131.1 
G1 X110.396 Y130.893 
G1 X110.015 Y130.712 
G1 X109.65 Y130.559 
G1 X109.327 Y130.443 
G1 X109.025 Y130.353 
G1 X108.638 Y130.257 
G1 X108.211 Y130.177 
G1 X107.732 Y130.117 
G1 X107.011 Y130.084 
G1 X106.229 Y130.141 
G1 X93.007 Y132.401 
G1 X99.292 Y120.44 
G1 X99.565 Y119.698 
G1 X99.73 Y119.101 
G1 X99.818 Y118.649 
G1 X99.877 Y118.2 
G1 X99.913 Y117.503 
G1 X99.895 Y117.014 
G1 X99.855 Y116.59 
G1 X99.776 Y116.115 
G1 X99.657 Y115.604 
G1 X99.476 Y115.032 
G1 X99.247 Y114.482 
G1 X93.012 Y102.598 
G1 X105.81 Y104.791 
G1 X106.187 Y104.846 
G1 X106.594 Y104.887 
G1 X107.217 Y104.903 
G1 X107.76 Y104.872 
G1 X108.224 Y104.813 
G1 X108.598 Y104.743 
G1 X109.035 Y104.636 
G1 X109.569 Y104.463 
G1 X110.171 Y104.214 
G1 X110.619 Y103.982 
G1 X111.06 Y103.709 
G1 X111.519 Y103.38 
G1 X111.995 Y102.975 
G1 X112.251 Y102.724 
G1 X121.356 Y93.38 
G1 X123.231 Y106.292 
G1 X123.325 Y106.831 
G1 X123.451 Y107.301 
G1 X123.65 Y107.887 
G1 X123.85 Y108.344 
G1 X124.154 Y108.921 
G1 X124.333 Y109.213 
G1 X124.644 Y109.647 
G1 X124.855 Y109.91 
G1 X125.223 Y110.315 
G1 X125.622 Y110.691 
G1 X126.011 Y111.005 
G1 X126.586 Y111.403 
G1 X127.061 Y111.669 
G1 X138.872 Y117.499 
G1 X126.859 Y123.436 
G1 X126.543 Y123.624 
G1 X126.018 Y123.988 
G1 X125.594 Y124.333 
G1 X125.14 Y124.769 
G1 X124.873 Y125.063 
G1 X124.45 Y125.616 
G1 X124.263 Y125.895 
G1 X124.033 Y126.291 
G1 X123.849 Y126.646 
G1 X123.654 Y127.098 
G1 X123.451 Y127.688 
G1 X123.27 Y128.449 
G1 X121.355 Y141.609 
G1 X117.5 Y137.654 
G1 F2700 
G0 F6000 X111.87 Y143.143
G0 X79.562 Y142.684
G0 X79.081 Y142.02
G0 X89.176 Y122.803
G0 X97.457 Y127.155
G1 F2700 
G1 F1200 X99.988 Y129.686 
G1 F2700 
G0 F6000 X103.612 Y129.068
G1 F2700 
G1 F1200 X98.919 Y124.374 
G1 F2700 
G0 F6000 X100.379 Y121.593
G1 F2700 
G1 F1200 X107.385 Y128.599 
G1 F2700 
G0 F6000 X101.367 Y118.338
G1 F2700 
G1 F1200 X120.449 Y137.42 
G1 F2700 
G0 F6000 X120.989 Y133.717
G1 F2700 
G1 F1200 X100.048 Y112.776 
G1 F2700 
G0 F6000 X101.297 Y105.539
G1 F2700 
G1 F1200 X122.273 Y126.516 
G1 F2700 
G0 F6000 X123.903 Y123.903
G1 F2700 
G1 F1200 X106.371 Y106.371 
G1 F2700 
G0 F6000 X110.105 Y105.862
G1 F2700 
G1 F1200 X126.289 Y122.046 
G1 F2700 
G0 F6000 X129.128 Y120.642
G1 F2700 
G1 F1200 X112.771 Y104.286 
G1 F2700 
G0 F6000 X114.89 Y102.162
G1 F2700 
G1 F1200 X131.967 Y119.239 
G1 F2700 
G0 F6000 X133.483 Y116.513
G1 F2700 
G1 F1200 X134.806 Y117.835 
G1 F2700 
G0 F6000 X121.528 Y130.014
G1 F2700 
G1 F1200 X96.176 Y104.662 
G1 F2700 
G0 F6000 X97.758 Y95.431
G0 X110.284 Y93.484
G0 X116.984 Y100.014
G1 F2700 
G1 F1200 X121.452 Y104.481 
G1 F2700 
G0 F6000 X120.731 Y99.518
G1 F2700 
G1 F1200 X119.078 Y97.865 
G1 F2700 
;MESH:NONMESH
G0 F300 X119.078 Y97.865 Z6
G0 F6000 X112.378 Y91.336
G0 X79.562 Y92.316
G0 X79.081 Y92.98
G0 X79.081 Y142.02
G0 X79.562 Y142.684
G0 X106.865 Y138.003
G0 X111.389 Y133.104
G0 X117.5 Y141.522
;TIME_ELAPSED:62.366811
;LAYER:1
;TYPE:WALL-INNER
;MESH:ster.obj
G1 F2700 
G1 F1350 X123.242 Y147.412 
G1 X125.906 Y129.084 
G1 X125.989 Y128.659 
G1 X126.097 Y128.288 
G1 X126.22 Y127.967 
G1 X126.412 Y127.571 
G1 X126.708 Y127.092 
G1 X126.997 Y126.74 
G1 X127.181 Y126.546 
G1 X127.402 Y126.34 
G1 X127.669 Y126.124 
G1 X127.989 Y125.906 
G1 X128.368 Y125.696 
G1 X144.976 Y117.499 
G1 X128.368 Y109.304 
G1 X127.989 Y109.094 
G1 X127.669 Y108.876 
G1 X127.402 Y108.66 
G1 X127.181 Y108.454 
G1 X126.997 Y108.26 
G1 X126.718 Y107.913 
G1 X126.475 Y107.541 
G1 X126.347 Y107.307 
G1 X126.22 Y107.032 
G1 X126.097 Y106.712 
G1 X125.989 Y106.341 
G1 X125.906 Y105.912 
G1 X123.242 Y87.583 
G1 X110.155 Y101.002 
G1 X109.842 Y101.267 
G1 X109.545 Y101.477 
G1 X109.139 Y101.712 
G1 X108.898 Y101.827 
G1 X108.488 Y101.988 
G1 X108.054 Y102.101 
G1 X107.792 Y102.15 
G1 X107.491 Y102.187 
G1 X107.149 Y102.204 
G1 X106.761 Y102.192 
G1 X106.332 Y102.14 
G1 X88.078 Y99.01 
G1 X96.794 Y115.605 
G1 X96.981 Y116.06 
G1 X97.099 Y116.493 
G1 X97.157 Y116.79 
G1 X97.191 Y117.055 
G1 X97.213 Y117.5 
G1 X97.19 Y117.944 
G1 X97.157 Y118.209 
G1 X97.099 Y118.506 
G1 X97.009 Y118.837 
G1 X96.879 Y119.202 
G1 X96.696 Y119.594 
G1 X88.077 Y135.987 
G1 X106.551 Y132.824 
G1 X107.043 Y132.787 
G1 X107.491 Y132.809 
G1 X107.792 Y132.846 
G1 X108.055 Y132.896 
G1 X108.387 Y132.982 
G1 X108.786 Y133.122 
G1 X109.016 Y133.223 
G1 X109.269 Y133.353 
G1 X109.545 Y133.519 
G1 X109.93 Y133.792 
G1 X110.315 Y134.151 
G1 X117.5 Y141.522 
G1 F2700 
G0 F7500 X117.794 Y145.535
G0 X117.5 Y145.82
;TYPE:WALL-OUTER
G1 F2700 
G1 F1350 X125.336 Y153.858 
G1 X128.875 Y129.516 
G92 
G1 X128.958 Y129.172 
G1 X129.126 Y128.877 
G1 X129.335 Y128.636 
G1 X129.596 Y128.436 
G1 X151.755 Y117.499 
G1 X129.602 Y106.568 
G1 X129.161 Y106.201 
G1 X128.959 Y105.805 
G1 X128.888 Y105.557 
G1 X125.337 Y81.136 
G1 X108.113 Y98.804 
G1 X107.824 Y99.029 
G1 X107.341 Y99.201 
G1 X106.912 Y99.194 
G1 X82.595 Y95.026 
G1 X94.073 Y116.868 
G1 X94.175 Y117.164 
G1 X94.216 Y117.705 
G1 X94.09 Y118.104 
G1 X82.593 Y139.971 
G1 X106.911 Y135.802 
G1 X107.323 Y135.795 
G1 X107.734 Y135.935 
G1 X108.06 Y136.136 
G1 X117.5 Y145.82 
G1 F2700 
G0 F7500 X117.794 Y145.535
G0 X116.64 Y138.491
G0 X117.5 Y137.654
;TYPE:SKIN
G1 F2700 
G1 F1350 X112.251 Y132.268 
G1 X111.977 Y132.004 
G1 X111.4 Y131.507 
G1 X110.766 Y131.1 
G1 X110.396 Y130.893 
G1 X110.015 Y130.712 
G1 X109.65 Y130.559 
G1 X109.327 Y130.443 
G1 X109.025 Y130.353 
G1 X108.638 Y130.257 
G1 X108.211 Y130.177 
G1 X107.732 Y130.117 
G1 X107.011 Y130.084 
G1 X106.229 Y130.141 
G1 X93.007 Y132.401 
G1 X99.292 Y120.44 
G1 X99.565 Y119.698 
G1 X99.73 Y119.101 
G1 X99.818 Y118.649 
G1 X99.877 Y118.2 
G1 X99.913 Y117.503 
G1 X99.895 Y117.014 
G1 X99.855 Y116.59 
G1 X99.776 Y116.115 
G1 X99.657 Y115.604 
G1 X99.476 Y115.032 
G1 X99.247 Y114.482 
G1 X93.012 Y102.598 
G1 X105.81 Y104.791 
G1 X106.187 Y104.846 
G1 X106.594 Y104.887 
G1 X107.217 Y104.903 
G1 X107.76 Y104.872 
G1 X108.224 Y104.813 
G1 X108.598 Y104.743 
G1 X109.035 Y104.636 
G1 X109.569 Y104.463 
G1 X110.171 Y104.214 
G1 X110.619 Y103.982 
G1 X111.06 Y103.709 
G1 X111.519 Y103.38 
G1 X111.995 Y102.975 
G1 X112.251 Y102.724 
G1 X121.356 Y93.38 
G1 X123.231 Y106.292 
G1 X123.325 Y106.831 
G1 X123.451 Y107.301 
G1 X123.65 Y107.887 
G1 X123.85 Y108.344 
G1 X124.154 Y108.921 
G1 X124.333 Y109.213 
G1 X124.644 Y109.647 
G1 X124.855 Y109.91 
G1 X125.223 Y110.315 
G1 X125.622 Y110.691 
G1 X126.011 Y111.005 
G1 X126.586 Y111.403 
G1 X127.061 Y111.669 
G1 X138.872 Y117.499 
G1 X126.859 Y123.436 
G1 X126.543 Y123.624 
G1 X126.018 Y123.988 
G1 X125.594 Y124.333 
G1 X125.14 Y124.769 
G1 X124.873 Y125.063 
G1 X124.45 Y125.616 
G1 X124.263 Y125.895 
G1 X124.033 Y126.291 
G1 X123.849 Y126.646 
G1 X123.654 Y127.098 
G1 X123.451 Y127.688 
G1 X123.27 Y128.449 
G1 X121.355 Y141.609 
G1 X117.5 Y137.654 
G1 F2700 
G0 F7500 X118.267 Y136.291
G1 F2700 
G1 F1350 X121.013 Y133.546 
G1 F2700 
G0 F7500 X116.173 Y134.142
G1 F2700 
G1 F1350 X121.737 Y128.579 
G1 F2700 
G0 F7500 X114.08 Y131.994
G1 F2700 
G1 F1350 X130.856 Y115.217 
G1 F2700 
G0 F7500 X128.016 Y113.814
G1 F2700 
G1 F1350 X111.831 Y129.999 
G1 F2700 
G0 F7500 X108.822 Y128.766
G1 F2700 
G1 F1350 X125.269 Y112.319 
G1 F2700 
G0 F7500 X123.173 Y110.172
G1 F2700 
G1 F1350 X104.414 Y128.932 
G1 F2700 
G0 F7500 X99.298 Y129.805
G1 F2700 
G1 F1350 X121.881 Y107.221 
G1 F2700 
G0 F7500 X121.315 Y103.544
G1 F2700 
G1 F1350 X97.185 Y127.675 
G1 F2700 
G0 F7500 X101.195 Y119.422
G1 F2700 
G1 F1350 X120.777 Y99.84 
G1 F2700 
G0 F7500 X110.8 Y105.575
G1 F2700 
G1 F1350 X101.115 Y115.26 
G1 F2700 
G0 F7500 X99.81 Y112.322
G1 F2700 
G1 F1350 X105.823 Y106.309 
G1 F2700 
G0 F7500 X102.197 Y105.693
G1 F2700 
G1 F1350 X98.35 Y109.539 
G1 F2700 
G0 F7500 X96.89 Y106.757
G1 F2700 
G1 F1350 X98.575 Y105.072 
G1 F2700 
G0 F7500 X100.157 Y95.842
G0 X126.201 Y77.164
G0 X126.979 Y77.417
G0 X155.804 Y117.09
G0 X155.804 Y117.91
G0 X134.347 Y128.504
G0 X130.205 Y120.111
G1 F2700 
G1 F1350 X133.698 Y116.618 
G1 F2700 
;MESH:NONMESH
G0 F300 X133.698 Y116.618 Z9
G0 F7500 X135.592 Y120.458
G0 X127.722 Y124.386
G0 X124.461 Y128.875
G0 X123.592 Y134.429
G0 X117.5 Y141.522
;TIME_ELAPSED:142.312068
;LAYER:2
;TYPE:WALL-INNER
;MESH:ster.obj
G1 F2700 
G1 F1500 X123.242 Y147.412 
G1 X125.906 Y129.084 
G1 X125.989 Y128.659 
G1 X126.097 Y128.288 
G1 X126.22 Y127.967 
G1 X126.412 Y127.571 
G1 X126.708 Y127.092 
G1 X126.997 Y126.74 
G1 X127.181 Y126.546 
G1 X127.402 Y126.34 
G1 X127.669 Y126.124 
G1 X127.989 Y125.906 
G1 X128.368 Y125.696 
G1 X144.976 Y117.499 
G1 X128.368 Y109.304 
G1 X127.989 Y109.094 
G1 X127.669 Y108.876 
G1 X127.402 Y108.66 
G1 X127.181 Y108.454 
G1 X126.997 Y108.26 
G1 X126.718 Y107.913 
G1 X126.475 Y107.541 
G1 X126.347 Y107.307 
G1 X126.22 Y107.032 
G1 X126.097 Y106.712 
G1 X125.989 Y106.341 
G1 X125.906 Y105.912 
G1 X123.242 Y87.583 
G1 X110.155 Y101.002 
G1 X109.842 Y101.267 
G1 X109.545 Y101.477 
G1 X109.139 Y101.712 
G1 X108.898 Y101.827 
G1 X108.488 Y101.988 
G1 X108.054 Y102.101 
G1 X107.792 Y102.15 
G1 X107.491 Y102.187 
G1 X107.149 Y102.204 
G1 X106.761 Y102.192 
G1 X106.332 Y102.14 
G1 X88.078 Y99.01 
G1 X96.794 Y115.605 
G1 X96.981 Y116.06 
G1 X97.099 Y116.493 
G1 X97.157 Y116.79 
G1 X97.191 Y117.055 
G1 X97.213 Y117.5 
G1 X97.19 Y117.944 
G1 X97.157 Y118.209 
G1 X97.099 Y118.506 
G1 X97.009 Y118.837 
G1 X96.879 Y119.202 
G1 X96.696 Y119.594 
G1 X88.077 Y135.987 
G1 X106.551 Y132.824 
G1 X107.043 Y132.787 
G1 X107.491 Y132.809 
G1 X107.792 Y132.846 
G1 X108.055 Y132.896 
G1 X108.387 Y132.982 
G1 X108.786 Y133.122 
G1 X109.016 Y133.223 
G1 X109.269 Y133.353 
G1 X109.545 Y133.519 
G1 X109.93 Y133.792 
G1 X110.315 Y134.151 
G1 X117.5 Y141.522 
G1 F2700 
G0 F9000 X117.794 Y145.535
G0 X117.5 Y145.82
;TYPE:WALL-OUTER
G1 F2700 
G1 F1500 X125.336 Y153.858 
G1 X128.875 Y129.516 
G1 X128.958 Y129.172 
G1 X129.126 Y128.877 
G1 X129.335 Y128.636 
G1 X129.596 Y128.436 
G1 X151.755 Y117.499 
G1 X129.602 Y106.568 
G1 X129.161 Y106.201 
G1 X128.959 Y105.805 
G1 X128.888 Y105.557 
G1 X125.337 Y81.136 
G1 X108.113 Y98.804 
G1 X107.824 Y99.029 
G1 X107.341 Y99.201 
G1 X106.912 Y99.194 
G1 X82.595 Y95.026 
G1 X94.073 Y116.868 
G1 X94.175 Y117.164 
G1 X94.216 Y117.705 
G1 X94.09 Y118.104 
G1 X82.593 Y139.971 
G1 X106.911 Y135.802 
G1 X107.323 Y135.795 
G1 X107.734 Y135.935 
G1 X108.06 Y136.136 
G1 X117.5 Y145.82 
G1 F2700 
G0 F9000 X117.794 Y145.535
G0 X116.64 Y138.491
G0 X117.5 Y137.654
;TYPE:SKIN
G1 F2700 
G1 F1500 X112.251 Y132.268 
G1 X111.977 Y132.004 
G1 X111.4 Y131.507 
G1 X110.766 Y131.1 
G1 X110.396 Y130.893 
G1 X110.015 Y130.712 
G1 X109.65 Y130.559 
G1 X109.327 Y130.443 
G1 X109.025 Y130.353 
G1 X108.638 Y130.257 
G1 X108.211 Y130.177 
G1 X107.732 Y130.117 
G1 X107.011 Y130.084 
G1 X106.229 Y130.141 
G1 X93.007 Y132.401 
G1 X99.292 Y120.44 
G92 
G1 X99.565 Y119.698 
G1 X99.73 Y119.101 
G1 X99.818 Y118.649 
G1 X99.877 Y118.2 
G1 X99.913 Y117.503 
G1 X99.895 Y117.014 
G1 X99.855 Y116.59 
G1 X99.776 Y116.115 
G1 X99.657 Y115.604 
G1 X99.476 Y115.032 
G1 X99.247 Y114.482 
G1 X93.012 Y102.598 
G1 X105.81 Y104.791 
G1 X106.187 Y104.846 
G1 X106.594 Y104.887 
G1 X107.217 Y104.903 
G1 X107.76 Y104.872 
G1 X108.224 Y104.813 
G1 X108.598 Y104.743 
G1 X109.035 Y104.636 
G1 X109.569 Y104.463 
G1 X110.171 Y104.214 
G1 X110.619 Y103.982 
G1 X111.06 Y103.709 
G1 X111.519 Y103.38 
G1 X111.995 Y102.975 
G1 X112.251 Y102.724 
G1 X121.356 Y93.38 
G1 X123.231 Y106.292 
G1 X123.325 Y106.831 
G1 X123.451 Y107.301 
G1 X123.65 Y107.887 
G1 X123.85 Y108.344 
G1 X124.154 Y108.921 
G1 X124.333 Y109.213 
G1 X124.644 Y109.647 
G1 X124.855 Y109.91 
G1 X125.223 Y110.315 
G1 X125.622 Y110.691 
G1 X126.011 Y111.005 
G1 X126.586 Y111.403 
G1 X127.061 Y111.669 
G1 X138.872 Y117.499 
G1 X126.859 Y123.436 
G1 X126.543 Y123.624 
G1 X126.018 Y123.988 
G1 X125.594 Y124.333 
G1 X125.14 Y124.769 
G1 X124.873 Y125.063 
G1 X124.45 Y125.616 
G1 X124.263 Y125.895 
G1 X124.033 Y126.291 
G1 X123.849 Y126.646 
G1 X123.654 Y127.098 
G1 X123.451 Y127.688 
G1 X123.27 Y128.449 
G1 X121.355 Y141.609 
G1 X117.5 Y137.654 
G1 F2700 
G0 F9000 X111.87 Y143.143
G0 X79.562 Y142.684
G0 X79.081 Y142.02
G0 X89.176 Y122.803
G0 X97.457 Y127.155
G1 F2700 
G1 F1500 X99.988 Y129.686 
G1 F2700 
G0 F9000 X103.612 Y129.068
G1 F2700 
G1 F1500 X98.919 Y124.374 
G1 F2700 
G0 F9000 X100.379 Y121.593
G1 F2700 
G1 F1500 X107.385 Y128.599 
G1 F2700 
G0 F9000 X101.367 Y118.338
G1 F2700 
G1 F1500 X120.449 Y137.42 
G1 F2700 
G0 F9000 X120.989 Y133.717
G1 F2700 
G1 F1500 X100.048 Y112.776 
G1 F2700 
G0 F9000 X101.297 Y105.539
G1 F2700 
G1 F1500 X122.273 Y126.516 
G1 F2700 
G0 F9000 X123.903 Y123.903
G1 F2700 
G1 F1500 X106.371 Y106.371 
G1 F2700 
G0 F9000 X110.105 Y105.862
G1 F2700 
G1 F1500 X126.289 Y122.046 
G1 F2700 
G0 F9000 X129.128 Y120.642
G1 F2700 
G1 F1500 X112.771 Y104.286 
G1 F2700 
G0 F9000 X114.89 Y102.162
G1 F2700 
G1 F1500 X131.967 Y119.239 
G1 F2700 
G0 F9000 X133.483 Y116.513
G1 F2700 
G1 F1500 X134.806 Y117.835 
G1 F2700 
G0 F9000 X121.528 Y130.014
G1 F2700 
G1 F1500 X96.176 Y104.662 
G1 F2700 
G0 F9000 X97.758 Y95.431
G0 X110.284 Y93.484
G0 X116.984 Y100.014
G1 F2700 
G1 F1500 X121.453 Y104.482 
G1 F2700 
G0 F9000 X120.731 Y99.518
G1 F2700 
G1 F1500 X119.078 Y97.865 
G1 F2700 
;MESH:NONMESH
G0 F300 X119.078 Y97.865 Z12
G0 F9000 X112.378 Y91.336
G0 X79.562 Y92.316
G0 X79.081 Y92.98
G0 X79.081 Y142.02
G0 X79.562 Y142.684
G0 X106.865 Y138.003
