;FLAVOR:Marlin
;TIME:923
;Filament used: 15.5958m
;Layer height: 3
;MINX:71.892
;MINY:69.606
;MINZ:3
;MAXX:158.943
;MAXY:161.414
;MAXZ:33
;TARGET_MACHINE.NAME:Creality Ender-3
;POSTPROCESSED
;  [SearchAndReplace]
;  [SearchAndReplace]
;Generated with Cura_SteamEngine 5.10.1
M140 S50
M105
M190 S50
M104 S200
M105
M109 S200
G21
; Ender 3 Custom Start G-code
G92 E0 ; Reset Extruder
G28 ; Home all axes
G1 Z2.0 F3000 ; Move Z Axis up little to prevent scratching of Heat Bed
G1 X0.1 Y20 Z0.3 F5000.0 ; Move to start position
G1 X0.1 Y200.0 Z0.3 F1500.0 E15 ; Draw the first line
G1 X0.4 Y200.0 Z0.3 F5000.0 ; Move to side a little
G1 X0.4 Y20 Z0.3 F1500.0 E30 ; Draw the second line
G92 E0 ; Reset Extruder
G1 Z2.0 F3000 ; Move Z Axis up little to prevent scratching of Heat Bed
G1 X5 Y20 Z0.3 F5000.0 ; Move over to prevent blob squish
M82 ;absolute extrusion mode
G92 E0
G92 E0
G1 F2700 E-5
;LAYER_COUNT:11
;LAYER:0

;MESH:ster.obj
G0 F6000 X117.5 Y147.34 Z3
;TYPE:WALL-INNER
G1 F2700 
G1 F1200 X124.938 Y154.968 
G1 X128.362 Y131.421 
G1 X128.433 Y131.045 
G1 X128.525 Y130.711 
G1 X128.629 Y130.417 
G1 X128.845 Y129.934 
G1 X129.124 Y129.494 
G1 X129.284 Y129.278 
G1 X129.558 Y128.955 
G1 X129.843 Y128.689 
G1 X130.071 Y128.501 
G1 X130.339 Y128.31 
G1 X130.651 Y128.122 
G1 X152.165 Y117.499 
G1 X130.651 Y106.878 
G1 X130.339 Y106.69 
G1 X130.071 Y106.499 
G1 X129.742 Y106.22 
G1 X129.485 Y105.959 
G1 X129.284 Y105.722 
G1 X129.124 Y105.506 
G1 X128.853 Y105.078 
G1 X128.684 Y104.716 
G1 X128.576 Y104.44 
G1 X128.448 Y104.036 
G1 X128.362 Y103.578 
G1 X124.938 Y80.027 
G1 X108.191 Y97.207 
G1 X107.916 Y97.445 
G1 X107.652 Y97.641 
G1 X107.403 Y97.8 
G1 X107.171 Y97.928 
G1 X106.764 Y98.118 
G1 X106.233 Y98.291 
G1 X105.79 Y98.377 
G1 X105.527 Y98.409 
G1 X105.232 Y98.427 
G1 X104.902 Y98.424 
G1 X104.54 Y98.392 
G1 X80.891 Y94.342 
G1 X91.964 Y115.405 
G1 X92.127 Y115.751 
G1 X92.297 Y116.227 
G1 X92.371 Y116.513 
G1 X92.44 Y116.894 
G1 X92.472 Y117.221 
G1 X92.48 Y117.588 
G1 X92.458 Y118 
G1 X92.399 Y118.353 
G1 X92.337 Y118.626 
G1 X92.249 Y118.925 
G1 X92.127 Y119.249 
G1 X91.964 Y119.594 
G1 X80.889 Y140.659 
G1 X104.347 Y136.636 
G1 X104.813 Y136.577 
G1 X105.232 Y136.573 
G1 X105.527 Y136.591 
G1 X106.007 Y136.656 
G1 X106.415 Y136.765 
G1 X106.857 Y136.925 
G1 X107.171 Y137.072 
G1 X107.403 Y137.2 
G1 X107.652 Y137.359 
G1 X107.916 Y137.555 
G1 X108.191 Y137.793 
G1 X117.5 Y147.34 
G1 F2700 
G0 F6000 X117.794 Y151.352
G0 X117.5 Y151.638
;TYPE:WALL-OUTER
G1 F2700 
G1 F1200 X127.032 Y161.414 
G1 X131.358 Y131.68 
G1 X131.543 Y131.242 
G1 X131.861 Y130.91 
G1 X132.094 Y130.752 
G1 X158.943 Y117.499 
G1 X132.094 Y104.248 
G1 X131.767 Y104.026 
G1 X131.463 Y103.608 
G1 X131.342 Y103.212 
G1 X127.033 Y73.58 
G1 X106.136 Y95.021 
G1 X105.796 Y95.262 
G1 X105.514 Y95.373 
G1 X105.2 Y95.426 
G1 X104.853 Y95.407 
G1 X75.407 Y90.358 
G1 X89.416 Y117.018 
G1 X89.478 Y117.407 
G1 X89.467 Y117.702 
G1 X89.363 Y118.083 
G1 X75.405 Y144.643 
G1 X104.854 Y139.593 
G1 X105.2 Y139.574 
G1 X105.514 Y139.627 
G1 X105.76 Y139.72 
G1 X106.09 Y139.937 
G1 X117.5 Y151.638 
G1 F2700 
G0 F6000 X117.794 Y151.352
G0 X116.624 Y144.317
G0 X117.5 Y143.466
;TYPE:SKIN
G1 F2700 
G1 F1200 X110.096 Y135.871 
G1 X109.569 Y135.423 
G1 X109.077 Y135.058 
G1 X108.606 Y134.776 
G1 X108.279 Y134.606 
G1 X107.943 Y134.451 
G1 X107.617 Y134.323 
G1 X107.039 Y134.133 
G1 X106.441 Y133.99 
G1 X105.791 Y133.899 
G1 X105.287 Y133.872 
G1 X104.629 Y133.879 
G1 X103.933 Y133.965 
G1 X85.823 Y137.071 
G1 X94.558 Y120.437 
G1 X94.819 Y119.748 
G1 X94.936 Y119.351 
G1 X95.049 Y118.872 
G1 X95.111 Y118.487 
G1 X95.158 Y118.078 
G1 X95.176 Y117.628 
G1 X95.17 Y117.052 
G1 X95.115 Y116.532 
G1 X95.049 Y116.137 
G1 X94.952 Y115.703 
G1 X94.798 Y115.186 
G1 X94.554 Y114.552 
G1 X85.824 Y97.926 
G1 X103.932 Y101.031 
G1 X104.625 Y101.117 
G1 X105.333 Y101.123 
G1 X105.788 Y101.096 
G1 X106.434 Y101.005 
G1 X106.912 Y100.896 
G1 X107.485 Y100.725 
G1 X107.89 Y100.567 
G1 X108.252 Y100.406 
G1 X108.85 Y100.081 
G1 X109.388 Y99.717 
G1 X109.909 Y99.3 
G1 X123.051 Y85.825 
G1 X125.687 Y103.948 
G1 X125.799 Y104.562 
G1 X125.972 Y105.189 
G1 X126.197 Y105.768 
G1 X126.375 Y106.154 
G1 X126.543 Y106.468 
G1 X126.752 Y106.816 
G1 X127.075 Y107.28 
G1 X127.446 Y107.728 
G1 X127.782 Y108.083 
G1 X128.252 Y108.501 
G1 X128.766 Y108.89 
G1 X129.355 Y109.248 
G1 X146.06 Y117.499 
G1 X129.359 Y125.748 
G1 X128.839 Y126.061 
G1 X128.457 Y126.329 
G1 X128.059 Y126.659 
G1 X127.741 Y126.957 
G1 X127.451 Y127.263 
G1 X127.075 Y127.716 
G1 X126.751 Y128.177 
G1 X126.568 Y128.485 
G1 X126.39 Y128.812 
G1 X126.185 Y129.256 
G1 X126.034 Y129.65 
G1 X125.857 Y130.209 
G1 X125.738 Y130.724 
G1 X123.051 Y149.161 
G1 X117.5 Y143.466 
G1 F2700 
G0 F6000 X111.867 Y148.957
G0 X72.373 Y147.355
G0 X71.892 Y146.691
G0 X81.688 Y128.044
G0 X89.972 Y132.398
G1 F2700 
G1 F1200 X92.054 Y134.48 
G1 F2700 
G0 F6000 X95.676 Y133.86
G1 F2700 
G1 F1200 X91.432 Y129.616 
G1 F2700 
G0 F6000 X92.894 Y126.835
G1 F2700 
G1 F1200 X99.298 Y133.239 
G1 F2700 
G0 F6000 X102.92 Y132.619
G1 F2700 
G1 F1200 X94.355 Y124.053 
G1 F2700 
G0 F6000 X95.816 Y121.272
G1 F2700 
G1 F1200 X107.168 Y132.624 
G1 F2700 
G0 F6000 X123.431 Y136.159
G1 F2700 
G1 F1200 X90.086 Y102.814 
G1 F2700 
G0 F6000 X92.026 Y100.512
G1 F2700 
G1 F1200 X123.971 Y132.457 
G1 F2700 
G0 F6000 X124.699 Y128.942
G1 F2700 
G1 F1200 X97.147 Y101.389 
G1 F2700 
G0 F6000 X102.267 Y102.267
G1 F2700 
G1 F1200 X126.306 Y126.306 
G1 F2700 
G0 F6000 X128.66 Y124.418
G1 F2700 
G1 F1200 X106.719 Y102.476 
G1 F2700 
G0 F6000 X109.76 Y101.275
G1 F2700 
G1 F1200 X131.501 Y123.015 
G1 F2700 
G0 F6000 X134.34 Y121.612
G1 F2700 
G1 F1200 X112.018 Y99.291 
G1 F2700 
G0 F6000 X114.113 Y97.142
G1 F2700 
G1 F1200 X137.181 Y120.21 
G1 F2700 
G0 F6000 X140.021 Y118.807
G1 F2700 
G92 
G1 F1200 X134.845 Y113.632 
G1 F2700 
G0 F6000 X124.005 Y102.792
G1 F2700 
G1 F1200 X116.207 Y94.994 
G1 F2700 
G0 F6000 X118.301 Y92.845
G1 F2700 
G1 F1200 X123.282 Y97.826 
G1 F2700 
G0 F6000 X122.559 Y92.861
G1 F2700 
G1 F1200 X120.396 Y90.697 
G1 F2700 
G0 F6000 X113.696 Y84.167
G0 X72.373 Y87.645
G0 X71.892 Y88.309
G0 X86.499 Y116.105
G0 X94.781 Y111.751
G1 F2700 
G1 F1200 X122.892 Y139.862 
G1 F2700 
G0 F6000 X122.351 Y143.565
G1 F2700 
G1 F1200 X96.666 Y117.879 
G1 F2700 
;MESH:NONMESH
G0 F300 X96.666 Y117.879 Z6
G0 F6000 X87.236 Y117.5
G0 X71.892 Y146.691
G0 X72.373 Y147.355
G0 X104.878 Y141.782
G0 X109.405 Y136.883
G0 X117.5 Y147.34
;TIME_ELAPSED:110.937492
;LAYER:1
;TYPE:WALL-INNER
;MESH:ster.obj
G1 F2700 
G1 F1350 X124.938 Y154.968 
G1 X128.362 Y131.421 
G1 X128.433 Y131.045 
G1 X128.525 Y130.711 
G1 X128.629 Y130.417 
G1 X128.845 Y129.934 
G1 X129.124 Y129.494 
G1 X129.284 Y129.278 
G1 X129.558 Y128.955 
G1 X129.843 Y128.689 
G1 X130.071 Y128.501 
G1 X130.339 Y128.31 
G1 X130.651 Y128.122 
G1 X152.165 Y117.499 
G1 X130.651 Y106.878 
G1 X130.339 Y106.69 
G1 X130.071 Y106.499 
G1 X129.742 Y106.22 
G1 X129.485 Y105.959 
G1 X129.284 Y105.722 
G1 X129.124 Y105.506 
G1 X128.853 Y105.078 
G1 X128.684 Y104.716 
G1 X128.576 Y104.44 
G1 X128.448 Y104.036 
G1 X128.362 Y103.578 
G1 X124.938 Y80.027 
G1 X108.191 Y97.207 
G1 X107.916 Y97.445 
G1 X107.652 Y97.641 
G1 X107.403 Y97.8 
G1 X107.171 Y97.928 
G1 X106.764 Y98.118 
G1 X106.233 Y98.291 
G1 X105.79 Y98.377 
G1 X105.527 Y98.409 
G1 X105.232 Y98.427 
G1 X104.902 Y98.424 
G1 X104.54 Y98.392 
G1 X80.891 Y94.342 
G1 X91.964 Y115.405 
G1 X92.127 Y115.751 
G1 X92.297 Y116.227 
G1 X92.371 Y116.513 
G1 X92.44 Y116.894 
G1 X92.472 Y117.221 
G1 X92.48 Y117.588 
G1 X92.458 Y118 
G1 X92.399 Y118.353 
G1 X92.337 Y118.626 
G1 X92.249 Y118.925 
G1 X92.127 Y119.249 
G1 X91.964 Y119.594 
G1 X80.889 Y140.659 
G1 X104.347 Y136.636 
G1 X104.813 Y136.577 
G1 X105.232 Y136.573 
G1 X105.527 Y136.591 
G1 X106.007 Y136.656 
G1 X106.415 Y136.765 
G1 X106.857 Y136.925 
G1 X107.171 Y137.072 
G1 X107.403 Y137.2 
G1 X107.652 Y137.359 
G1 X107.916 Y137.555 
G1 X108.191 Y137.793 
G1 X117.5 Y147.34 
G1 F2700 
G0 F7500 X117.794 Y151.352
G0 X117.5 Y151.638
;TYPE:WALL-OUTER
G1 F2700 
G1 F1350 X127.032 Y161.414 
G1 X131.358 Y131.68 
G1 X131.543 Y131.242 
G1 X131.861 Y130.91 
G1 X132.094 Y130.752 
G1 X158.943 Y117.499 
G1 X132.094 Y104.248 
G1 X131.767 Y104.026 
G1 X131.463 Y103.608 
G1 X131.342 Y103.212 
G1 X127.033 Y73.58 
G1 X106.136 Y95.021 
G1 X105.796 Y95.262 
G1 X105.514 Y95.373 
G1 X105.2 Y95.426 
G1 X104.853 Y95.407 
G1 X75.407 Y90.358 
G1 X89.416 Y117.018 
G1 X89.478 Y117.407 
G1 X89.467 Y117.702 
G1 X89.363 Y118.083 
G1 X75.405 Y144.643 
G1 X104.854 Y139.593 
G1 X105.2 Y139.574 
G1 X105.514 Y139.627 
G1 X105.76 Y139.72 
G1 X106.09 Y139.937 
G1 X117.5 Y151.638 
G1 F2700 
G0 F7500 X117.794 Y151.352
G0 X116.624 Y144.317
G0 X117.5 Y143.466
;TYPE:SKIN
G1 F2700 
G1 F1350 X110.096 Y135.871 
G1 X109.569 Y135.423 
G1 X109.077 Y135.058 
G1 X108.606 Y134.776 
G1 X108.279 Y134.606 
G1 X107.943 Y134.451 
G1 X107.617 Y134.323 
G1 X107.039 Y134.133 
G1 X106.441 Y133.99 
G1 X105.791 Y133.899 
G1 X105.287 Y133.872 
G1 X104.629 Y133.879 
G1 X103.933 Y133.965 
G1 X85.823 Y137.071 
G1 X94.558 Y120.437 
G1 X94.819 Y119.748 
G1 X94.936 Y119.351 
G1 X95.049 Y118.872 
G1 X95.111 Y118.487 
G1 X95.158 Y118.078 
G1 X95.176 Y117.628 
G1 X95.17 Y117.052 
G1 X95.115 Y116.532 
G1 X95.049 Y116.137 
G1 X94.952 Y115.703 
G1 X94.798 Y115.186 
G1 X94.554 Y114.552 
G1 X85.824 Y97.926 
G1 X103.932 Y101.031 
G1 X104.625 Y101.117 
G1 X105.333 Y101.123 
G1 X105.788 Y101.096 
G1 X106.434 Y101.005 
G1 X106.912 Y100.896 
G1 X107.485 Y100.725 
G1 X107.89 Y100.567 
G1 X108.252 Y100.406 
G1 X108.85 Y100.081 
G1 X109.388 Y99.717 
G1 X109.909 Y99.3 
G1 X123.051 Y85.825 
G1 X125.687 Y103.948 
G1 X125.799 Y104.562 
G1 X125.972 Y105.189 
G1 X126.197 Y105.768 
G1 X126.375 Y106.154 
G1 X126.543 Y106.468 
G1 X126.752 Y106.816 
G1 X127.075 Y107.28 
G1 X127.446 Y107.728 
G1 X127.782 Y108.083 
G1 X128.252 Y108.501 
G1 X128.766 Y108.89 
G1 X129.355 Y109.248 
G1 X146.06 Y117.499 
G1 X129.359 Y125.748 
G1 X128.839 Y126.061 
G1 X128.457 Y126.329 
G1 X128.059 Y126.659 
G1 X127.741 Y126.957 
G1 X127.451 Y127.263 
G1 X127.075 Y127.716 
G1 X126.751 Y128.177 
G1 X126.568 Y128.485 
G1 X126.39 Y128.812 
G1 X126.185 Y129.256 
G1 X126.034 Y129.65 
G1 X125.857 Y130.209 
G1 X125.738 Y130.724 
G1 X123.051 Y149.161 
G1 X117.5 Y143.466 
G1 F2700 
G0 F7500 X121.681 Y145.605
G1 F2700 
G1 F1350 X122.117 Y145.17 
G1 F2700 
G0 F7500 X119.587 Y143.457
G1 F2700 
G1 F1350 X122.841 Y140.203 
G1 F2700 
G0 F7500 X123.565 Y135.236
G1 F2700 
G1 F1350 X117.492 Y141.309 
G1 F2700 
G0 F7500 X115.397 Y139.161
G1 F2700 
G1 F1350 X124.309 Y130.249 
G1 F2700 
G0 F7500 X131.584 Y122.974
G1 F2700 
G1 F1350 X138.916 Y115.642 
G1 F2700 
G0 F7500 X141.756 Y117.045
G1 F2700 
G1 F1350 X139.965 Y118.836 
G1 F2700 
G0 F7500 X136.076 Y114.239
G1 F2700 
G1 F1350 X113.303 Y137.013 
G1 F2700 
G0 F7500 X111.208 Y134.865
G1 F2700 
G1 F1350 X133.237 Y112.837 
G1 F2700 
G0 F7500 X130.397 Y111.434
G1 F2700 
G1 F1350 X108.687 Y133.144 
G1 F2700 
G0 F7500 X105.215 Y132.373
G1 F2700 
G1 F1350 X127.655 Y109.933 
G1 F2700 
G0 F7500 X125.584 Y107.761
G1 F2700 
G1 F1350 X100.272 Y133.073 
G1 F2700 
G0 F7500 X95.153 Y133.95
G1 F2700 
G1 F1350 X124.316 Y104.787 
G1 F2700 
G0 F7500 X123.759 Y101.101
G1 F2700 
G92 
G1 F1350 X90.032 Y134.828 
G1 F2700 
G0 F7500 X91.913 Y128.705
G1 F2700 
G1 F1350 X123.219 Y97.398 
G1 F2700 
G0 F7500 X122.68 Y93.694
G1 F2700 
G1 F1350 X96.281 Y120.094 
G1 F2700 
G0 F7500 X96.478 Y115.654
G1 F2700 
G1 F1350 X122.141 Y89.991 
G1 F2700 
G0 F7500 X131.412 Y88.644
G0 X128.676 Y69.859
G0 X127.898 Y69.606
G0 X104.878 Y93.218
G0 X105.268 Y102.622
G1 F2700 
G1 F1350 X95.249 Y112.641 
G1 F2700 
G0 F7500 X93.787 Y109.86
G1 F2700 
G1 F1350 X101.51 Y102.137 
G1 F2700 
G0 F7500 X97.888 Y101.516
G1 F2700 
G1 F1350 X92.326 Y107.078 
G1 F2700 
G0 F7500 X90.865 Y104.296
G1 F2700 
G1 F1350 X94.267 Y100.895 
G1 F2700 
G0 F7500 X90.645 Y100.274
G1 F2700 
G1 F1350 X89.404 Y101.514 
G1 F2700 
;MESH:NONMESH
G0 F300 X89.404 Y101.514 Z9
G0 F7500 X81.118 Y105.87
G0 X71.892 Y146.691
G0 X72.373 Y147.355
G0 X104.878 Y141.782
G0 X109.405 Y136.883
G0 X117.5 Y147.34
;TIME_ELAPSED:208.185943
;LAYER:2
;TYPE:WALL-INNER
;MESH:ster.obj
G1 F2700 
G1 F1500 X124.938 Y154.968 
G1 X128.362 Y131.421 
G1 X128.433 Y131.045 
G1 X128.525 Y130.711 
G1 X128.629 Y130.417 
G1 X128.845 Y129.934 
G1 X129.124 Y129.494 
G1 X129.284 Y129.278 
G1 X129.558 Y128.955 
G1 X129.843 Y128.689 
G1 X130.071 Y128.501 
G1 X130.339 Y128.31 
G1 X130.651 Y128.122 
G1 X152.165 Y117.499 
G1 X130.651 Y106.878 
G1 X130.339 Y106.69 
G1 X130.071 Y106.499 
G1 X129.742 Y106.22 
G1 X129.485 Y105.959 
G1 X129.284 Y105.722 
G1 X129.124 Y105.506 
G1 X128.853 Y105.078 
G1 X128.684 Y104.716 
G1 X128.576 Y104.44 
G1 X128.448 Y104.036 
G1 X128.362 Y103.578 
G1 X124.938 Y80.027 
G1 X108.191 Y97.207 
G1 X107.916 Y97.445 
G1 X107.652 Y97.641 
G1 X107.403 Y97.8 
G1 X107.171 Y97.928 
G1 X106.764 Y98.118 
G1 X106.233 Y98.291 
G1 X105.79 Y98.377 
G1 X105.527 Y98.409 
G1 X105.232 Y98.427 
G1 X104.902 Y98.424 
G1 X104.54 Y98.392 
G1 X80.891 Y94.342 
G1 X91.964 Y115.405 
G1 X92.127 Y115.751 
G1 X92.297 Y116.227 
G1 X92.371 Y116.513 
G1 X92.44 Y116.894 
G1 X92.472 Y117.221 
G1 X92.48 Y117.588 
G1 X92.458 Y118 
G1 X92.399 Y118.353 
G1 X92.337 Y118.626 
G1 X92.249 Y118.925 
G1 X92.127 Y119.249 
G1 X91.964 Y119.594 
G1 X80.889 Y140.659 
G1 X104.347 Y136.636 
G1 X104.813 Y136.577 
G1 X105.232 Y136.573 
G1 X105.527 Y136.591 
G1 X106.007 Y136.656 
G1 X106.415 Y136.765 
G1 X106.857 Y136.925 
G1 X107.171 Y137.072 
G1 X107.403 Y137.2 
G1 X107.652 Y137.359 
G1 X107.916 Y137.555 
G1 X108.191 Y137.793 
G1 X117.5 Y147.34 
G1 F2700 
G0 F9000 X117.794 Y151.352
G0 X117.5 Y151.638
;TYPE:WALL-OUTER
G1 F2700 
G1 F1500 X127.032 Y161.414 
G1 X131.358 Y131.68 
G1 X131.543 Y131.242 
G1 X131.861 Y130.91 
G1 X132.094 Y130.752 
G1 X158.943 Y117.499 
G1 X132.094 Y104.248 
G1 X131.767 Y104.026 
G1 X131.463 Y103.608 
G1 X131.342 Y103.212 
G1 X127.033 Y73.58 
G1 X106.136 Y95.021 
G1 X105.796 Y95.262 
G1 X105.514 Y95.373 
G1 X105.2 Y95.426 
G1 X104.853 Y95.407 
G1 X75.407 Y90.358 
G1 X89.416 Y117.018 
G1 X89.478 Y117.407 
G1 X89.467 Y117.702 
G1 X89.363 Y118.083 
G1 X75.405 Y144.643 
G1 X104.854 Y139.593 
G1 X105.15 Y139.572 
G1 X105.514 Y139.627 
G1 X105.76 Y139.72 
G1 X106.09 Y139.937 
G1 X117.5 Y151.638 
G1 F2700 
G0 F9000 X117.794 Y151.352
G0 X116.624 Y144.317
G0 X117.5 Y143.466
;TYPE:SKIN
G1 F2700 
G1 F1500 X110.096 Y135.871 
G1 X109.569 Y135.423 
G1 X109.077 Y135.058 
G1 X108.606 Y134.776 
G1 X108.279 Y134.606 
G1 X107.943 Y134.451 
G1 X107.617 Y134.323 
G1 X107.039 Y134.133 
G1 X106.441 Y133.99 
G1 X105.791 Y133.899 
G1 X105.287 Y133.872 
G1 X104.629 Y133.879 
G1 X103.933 Y133.965 
G1 X85.823 Y137.071 
G1 X94.558 Y120.437 
G1 X94.819 Y119.748 
G1 X94.936 Y119.351 
G1 X95.049 Y118.872 
G1 X95.111 Y118.487 
G1 X95.158 Y118.078 
G1 X95.176 Y117.628 
G1 X95.17 Y117.052 
G1 X95.115 Y116.532 
G1 X95.049 Y116.137 
G1 X94.952 Y115.703 
G1 X94.798 Y115.186 
G1 X94.554 Y114.552 
G1 X85.824 Y97.926 
G1 X103.932 Y101.031 
G1 X104.625 Y101.117 
G1 X105.333 Y101.123 
G1 X105.788 Y101.096 
G1 X106.434 Y101.005 
G1 X106.912 Y100.896 
G1 X107.485 Y100.725 
G1 X107.89 Y100.567 
G1 X108.252 Y100.406 
G1 X108.85 Y100.081 
G1 X109.388 Y99.717 
G1 X109.909 Y99.3 
G1 X123.051 Y85.825 
G1 X125.687 Y103.948 
G1 X125.799 Y104.562 
G1 X125.972 Y105.189 
G1 X126.197 Y105.768 
G1 X126.375 Y106.154 
G1 X126.543 Y106.468 
G1 X126.752 Y106.816 
G1 X127.075 Y107.28 
G1 X127.446 Y107.728 
G1 X127.782 Y108.083 
G1 X128.252 Y108.501 
G1 X128.766 Y108.89 
G1 X129.355 Y109.248 
G1 X146.06 Y117.499 
G1 X129.359 Y125.748 
G1 X128.839 Y126.061 
G1 X128.457 Y126.329 
G1 X128.059 Y126.659 
G1 X127.741 Y126.957 
G1 X127.451 Y127.263 
G1 X127.075 Y127.716 
G1 X126.751 Y128.177 
G1 X126.568 Y128.485 
G1 X126.39 Y128.812 
G1 X126.185 Y129.256 
G1 X126.034 Y129.65 
G1 X125.857 Y130.209 
G1 X125.738 Y130.724 
G1 X123.051 Y149.161 
G1 X117.5 Y143.466 
G1 F2700 
G0 F9000 X111.867 Y148.957
G0 X72.373 Y147.355
